; generated by PrusaSlicer 2.3.1 on 2021-07-15 at 18:40:22 UTC

; 

; external perimeters extrusion width = 0.45mm
; perimeters extrusion width = 0.45mm
; infill extrusion width = 0.45mm
; solid infill extrusion width = 0.45mm
; top infill extrusion width = 0.40mm
; first layer extrusion width = 0.42mm

M73 P0 R34
M73 Q0 S34
M201 X1000 Y1000 Z200 E5000 ; sets maximum accelerations, mm/sec^2
M203 X200 Y200 Z12 E120 ; sets maximum feedrates, mm/sec
M204 P1250 R1250 T1250 ; sets acceleration (P, T) and retract acceleration (R), mm/sec^2
M205 X8.00 Y8.00 Z0.40 E4.50 ; sets the jerk limits, mm/sec
M205 S0 T0 ; sets the minimum extruding and travel feed rate, mm/sec
M107
;TYPE:Custom
M862.3 P "MK3S" ; printer model check
M862.1 P0.4 ; nozzle diameter check
M115 U3.9.3 ; tell printer latest fw version
G90 ; use absolute coordinates
M83 ; extruder relative mode
M104 S215 ; set extruder temp
M140 S60 ; set bed temp
M190 S60 ; wait for bed temp
M109 S215 ; wait for extruder temp
G28 W ; home all without mesh bed level
G80 ; mesh bed leveling
G1 Y-3.0 F1000.0 ; go outside print area
G92 E0.0
G1 X60.0 E9.0 F1000.0 ; intro line
G1 X100.0 E12.5 F1000.0 ; intro line
G92 E0.0
M221 S95

; Don't change E values below. Excessive value can damage the printer.
M907 E430 ; set extruder motor current
G21 ; set units to millimeters
G90 ; use absolute coordinates
M83 ; use relative distances for extrusion
M900 K0.05 ; Filament gcode LA 1.5
M900 K30 ; Filament gcode LA 1.0
;LAYER_CHANGE
;Z:0.2
;HEIGHT:0.2
;BEFORE_LAYER_CHANGE
G92 E0.0
;0.2


G1 E-0.80000 F2100.000
G1 Z0.400 F10800.000
;AFTER_LAYER_CHANGE
;0.2
G1 X90.557 Y100.472
G1 Z0.200
G1 E0.80000 F2100.000
M204 S1000
;TYPE:Skirt
;WIDTH:0.42
G1 F1200.000
G1 X91.093 Y99.391 E0.03784
G1 X91.658 Y98.702 E0.02794
G1 X92.420 Y98.087 E0.03071
G1 X93.274 Y97.656 E0.03000
G1 X94.239 Y97.405 E0.03127
G1 X105.703 Y97.360 E0.35944
G1 X152.236 Y97.861 E1.45910
G1 X175.765 Y98.361 E0.73790
G1 X176.807 Y98.529 E0.03310
G1 X177.900 Y98.990 E0.03717
G1 X178.823 Y99.711 E0.03673
G1 X179.329 Y100.311 E0.02461
G1 X179.710 Y100.973 E0.02396
G1 X180.079 Y102.077 E0.03648
G1 X180.162 Y102.981 E0.02847
G1 X180.162 Y113.671 E0.33519
G1 X180.014 Y114.764 E0.03458
G1 X179.698 Y115.618 E0.02855
G1 X179.392 Y116.151 E0.01926
G1 X179.031 Y116.630 E0.01883
G1 X178.436 Y117.202 E0.02587
G1 X177.731 Y117.665 E0.02642
G1 X177.161 Y117.921 E0.01960
G1 X176.359 Y118.137 E0.02605
G1 X175.733 Y118.204 E0.01974
G1 X164.765 Y118.204 E0.34388
G1 X118.255 Y117.704 E1.45838
G1 X94.730 Y117.203 E0.73778
G1 X93.466 Y116.977 E0.04026
G1 X92.727 Y116.659 E0.02521
G1 X92.241 Y116.346 E0.01813
G1 X91.338 Y115.504 E0.03872
G1 X90.811 Y114.693 E0.03032
G1 X90.448 Y113.726 E0.03239
G1 X90.317 Y112.821 E0.02868
G1 X90.315 Y101.863 E0.34359
G1 X90.547 Y100.532 E0.04236
; printing object g20.stl id:0 copy 0
;WIPE_START
G1 F8640.000
G1 X91.093 Y99.391 E-0.29200
G1 X91.658 Y98.702 E-0.20576
G1 X92.420 Y98.087 E-0.22614
G1 X92.560 Y98.016 E-0.03610
;WIPE_END
G1 E-0.04000 F2100.000
G1 Z0.600 F10800.000
G1 X94.228 Y101.558
G1 Z0.200
G1 E0.80000 F2100.000
;TYPE:Perimeter
G1 F1200.000
G1 X94.329 Y101.422 E0.00530
G1 X94.456 Y101.311 E0.00531
G1 X94.605 Y101.229 E0.00532
G1 X94.881 Y101.168 E0.00886
G1 X105.640 Y101.180 E0.33733
G1 X105.828 Y101.215 E0.00602
G1 X105.973 Y101.282 E0.00498
G1 X106.107 Y101.384 E0.00531
G1 X106.217 Y101.513 E0.00529
G1 X106.296 Y101.661 E0.00527
G1 X106.356 Y101.937 E0.00884
G1 X106.357 Y112.612 E0.33472
G1 X106.312 Y112.874 E0.00834
G1 X106.251 Y113.013 E0.00475
G1 X106.158 Y113.143 E0.00501
G1 X106.048 Y113.243 E0.00466
G1 X105.907 Y113.325 E0.00511
G1 X105.754 Y113.376 E0.00508
G1 X105.573 Y113.399 E0.00571
G1 X94.917 Y113.399 E0.33412
G1 X94.640 Y113.354 E0.00879
G1 X94.465 Y113.269 E0.00611
G1 X94.373 Y113.201 E0.00360
G1 X94.284 Y113.105 E0.00409
G1 X94.198 Y112.965 E0.00516
G1 X94.143 Y112.811 E0.00513
G1 X94.117 Y112.626 E0.00584
G1 X94.118 Y101.962 E0.33437
M73 P1 R34
M73 Q1 S34
G1 X94.163 Y101.701 E0.00832
G1 X94.203 Y101.613 E0.00303
G1 X93.860 Y101.457 F10800.000
;TYPE:External perimeter
G1 F1200.000
G1 X93.901 Y101.366 E0.00315
G1 X94.050 Y101.165 E0.00784
G1 X94.239 Y101.000 E0.00788
G1 X94.460 Y100.879 E0.00790
G1 X94.706 Y100.807 E0.00804
G1 X94.861 Y100.791 E0.00489
G1 X105.674 Y100.803 E0.33902
G1 X105.944 Y100.852 E0.00860
G1 X106.169 Y100.957 E0.00777
G1 X106.368 Y101.109 E0.00787
G1 X106.530 Y101.299 E0.00783
G1 X106.647 Y101.519 E0.00779
G1 X106.716 Y101.759 E0.00785
G1 X106.733 Y101.917 E0.00497
G1 X106.734 Y112.644 E0.33634
G1 X106.676 Y112.983 E0.01080
G1 X106.581 Y113.200 E0.00743
G1 X106.442 Y113.395 E0.00751
G1 X106.272 Y113.549 E0.00719
G1 X106.063 Y113.670 E0.00755
G1 X105.838 Y113.746 E0.00744
G1 X105.597 Y113.777 E0.00764
G1 X94.886 Y113.776 E0.33582
G1 X94.493 Y113.703 E0.01253
G1 X94.268 Y113.593 E0.00786
G1 X94.120 Y113.483 E0.00579
G1 X93.982 Y113.334 E0.00635
G1 X93.856 Y113.129 E0.00755
G1 X93.775 Y112.901 E0.00758
G1 X93.740 Y112.652 E0.00789
G1 X93.741 Y101.929 E0.33621
G1 X93.800 Y101.589 E0.01084
G1 X93.835 Y101.512 E0.00264
G1 X93.959 Y101.442 F10800.000
;WIPE_START
G1 F8640.000
G1 X93.901 Y101.366 E-0.03704
G1 X94.050 Y101.165 E-0.05777
G1 X94.239 Y101.000 E-0.05801
G1 X94.460 Y100.879 E-0.05816
G1 X94.706 Y100.807 E-0.05919
G1 X94.861 Y100.791 E-0.03600
G1 X96.827 Y100.793 E-0.45383
;WIPE_END
G1 E-0.04000 F2100.000
G1 Z0.600 F10800.000
G1 X106.236 Y101.918
G1 Z0.200
G1 E0.80000 F2100.000
;TYPE:Solid infill
;WIDTH:0.425795
G1 F1200.000
G1 X105.900 Y101.582 E0.01513
G1 X105.742 Y101.486 E0.00589
G1 X105.614 Y101.463 E0.00415
G1 X105.239 Y101.462 E0.01193
G1 X106.073 Y102.297 E0.03757
G1 X106.073 Y102.838 E0.01724
G1 X104.697 Y101.462 E0.06197
G1 X104.155 Y101.461 E0.01726
G1 X106.073 Y103.380 E0.08638
G1 X106.073 Y103.921 E0.01724
G1 X103.613 Y101.460 E0.11079
G1 X103.071 Y101.460 E0.01726
G1 X106.073 Y104.463 E0.13519
G1 X106.073 Y105.004 E0.01724
G1 X102.528 Y101.459 E0.15960
G1 X101.986 Y101.459 E0.01726
G1 X106.073 Y105.546 E0.18401
G1 X106.073 Y106.087 E0.01724
G1 X101.444 Y101.458 E0.20841
G1 X100.902 Y101.457 E0.01726
G1 X106.073 Y106.629 E0.23282
G1 X106.073 Y107.170 E0.01724
G1 X100.360 Y101.457 E0.25723
G1 X99.818 Y101.456 E0.01726
G1 X106.074 Y107.712 E0.28164
G1 X106.074 Y108.253 E0.01724
G1 X99.276 Y101.456 E0.30604
G1 X98.734 Y101.455 E0.01726
G1 X106.074 Y108.795 E0.33045
G1 X106.074 Y109.336 E0.01724
G1 X98.192 Y101.454 E0.35486
G1 X97.650 Y101.454 E0.01726
G1 X106.074 Y109.878 E0.37926
G1 X106.074 Y110.419 E0.01724
G1 X97.108 Y101.453 E0.40367
G1 X96.566 Y101.453 E0.01726
G1 X106.074 Y110.961 E0.42808
G1 X106.074 Y111.502 E0.01724
G1 X96.024 Y101.452 E0.45248
G1 X95.482 Y101.451 E0.01726
G1 X106.074 Y112.044 E0.47689
G1 X106.074 Y112.585 E0.01724
G1 X94.940 Y101.451 E0.50130
G1 X94.706 Y101.497 E0.00759
G1 X94.551 Y101.604 E0.00599
G1 X105.923 Y112.975 E0.51199
M73 P1 R33
G1 X105.881 Y113.013 E0.00180
G1 X105.690 Y113.100 E0.00666
G1 X105.522 Y113.117 E0.00536
G1 X94.401 Y101.995 E0.50074
G1 X94.401 Y102.536 E0.01724
G1 X104.981 Y113.117 E0.47636
G1 X104.440 Y113.117 E0.01724
G1 X94.401 Y103.078 E0.45198
G1 X94.401 Y103.619 E0.01724
G1 X103.898 Y113.117 E0.42761
G1 X103.357 Y113.117 E0.01724
G1 X94.401 Y104.161 E0.40323
G1 X94.401 Y104.702 E0.01724
G1 X102.815 Y113.117 E0.37885
G1 X102.274 Y113.117 E0.01724
G1 X94.400 Y105.243 E0.35447
G1 X94.400 Y105.785 E0.01724
G1 X101.732 Y113.117 E0.33010
G1 X101.191 Y113.117 E0.01724
G1 X94.400 Y106.326 E0.30572
G1 X94.400 Y106.868 E0.01724
G1 X100.649 Y113.117 E0.28134
G1 X100.108 Y113.117 E0.01724
G1 X94.400 Y107.409 E0.25697
G1 X94.400 Y107.951 E0.01724
G1 X99.566 Y113.117 E0.23259
M73 P2 R33
M73 Q2 S34
G1 X99.025 Y113.117 E0.01724
G1 X94.400 Y108.492 E0.20821
G1 X94.400 Y109.033 E0.01724
G1 X98.483 Y113.117 E0.18383
G1 X97.942 Y113.117 E0.01724
G1 X94.400 Y109.575 E0.15946
G1 X94.400 Y110.116 E0.01724
G1 X97.400 Y113.117 E0.13508
G1 X96.859 Y113.117 E0.01724
G1 X94.400 Y110.658 E0.11070
G1 X94.400 Y111.199 E0.01724
G1 X96.317 Y113.117 E0.08633
G1 X95.776 Y113.117 E0.01724
G1 X94.400 Y111.741 E0.06195
G1 X94.400 Y112.282 E0.01724
G1 X95.235 Y113.117 E0.03757
G1 X94.939 Y113.117 E0.00940
G1 X94.726 Y113.082 E0.00687
G1 X94.576 Y112.999 E0.00548
G1 X94.236 Y112.660 E0.01529
; stop printing object g20.stl id:0 copy 0
; printing object g20.stl id:1 copy 0
;WIPE_START
G1 F8640.000
G1 X94.576 Y112.999 E-0.11086
G1 X94.726 Y113.082 E-0.03975
G1 X94.939 Y113.117 E-0.04982
G1 X95.235 Y113.117 E-0.06816
G1 X94.400 Y112.282 E-0.27250
G1 X94.400 Y111.741 E-0.12502
G1 X94.688 Y112.028 E-0.09390
;WIPE_END
G1 E-0.04000 F2100.000
G1 Z0.600 F10800.000
G1 X117.965 Y113.769
G1 Z0.200
G1 E0.80000 F2100.000
;TYPE:Perimeter
;WIDTH:0.42
G1 F1200.000
G1 X117.784 Y113.605 E0.00766
G1 X117.698 Y113.465 E0.00516
G1 X117.643 Y113.311 E0.00513
G1 X117.617 Y113.126 E0.00584
G1 X117.618 Y102.462 E0.33437
G1 X117.663 Y102.201 E0.00832
G1 X117.728 Y102.058 E0.00491
G1 X117.829 Y101.922 E0.00530
G1 X117.956 Y101.811 E0.00531
G1 X118.105 Y101.729 E0.00532
G1 X118.381 Y101.668 E0.00886
G1 X129.140 Y101.680 E0.33733
G1 X129.328 Y101.715 E0.00602
G1 X129.473 Y101.782 E0.00498
G1 X129.607 Y101.884 E0.00531
G1 X129.717 Y102.013 E0.00529
G1 X129.796 Y102.161 E0.00527
G1 X129.856 Y102.437 E0.00884
G1 X129.857 Y113.112 E0.33472
G1 X129.812 Y113.374 E0.00834
G1 X129.751 Y113.513 E0.00475
G1 X129.658 Y113.643 E0.00501
G1 X129.548 Y113.743 E0.00466
G1 X129.407 Y113.825 E0.00511
G1 X129.254 Y113.876 E0.00508
G1 X129.073 Y113.899 E0.00571
G1 X118.417 Y113.899 E0.33412
G1 X118.140 Y113.854 E0.00879
G1 X118.019 Y113.795 E0.00422
G1 X117.768 Y114.093 F10800.000
;TYPE:External perimeter
G1 F1200.000
G1 X117.620 Y113.983 E0.00579
G1 X117.482 Y113.834 E0.00635
G1 X117.356 Y113.629 E0.00755
G1 X117.275 Y113.401 E0.00758
G1 X117.240 Y113.152 E0.00789
G1 X117.241 Y102.429 E0.33621
G1 X117.300 Y102.089 E0.01084
G1 X117.401 Y101.866 E0.00767
G1 X117.550 Y101.665 E0.00784
G1 X117.739 Y101.500 E0.00788
G1 X117.960 Y101.379 E0.00790
G1 X118.206 Y101.307 E0.00804
G1 X118.361 Y101.291 E0.00489
G1 X129.174 Y101.303 E0.33902
G1 X129.444 Y101.352 E0.00860
G1 X129.669 Y101.457 E0.00777
G1 X129.868 Y101.609 E0.00787
G1 X130.030 Y101.799 E0.00783
G1 X130.147 Y102.019 E0.00779
G1 X130.216 Y102.259 E0.00785
G1 X130.233 Y102.417 E0.00497
G1 X130.234 Y113.144 E0.33634
G1 X130.176 Y113.483 E0.01080
G1 X130.081 Y113.700 E0.00743
G1 X129.942 Y113.895 E0.00751
G1 X129.772 Y114.049 E0.00719
G1 X129.563 Y114.170 E0.00755
G1 X129.338 Y114.246 E0.00744
G1 X129.097 Y114.277 E0.00764
G1 X118.386 Y114.276 E0.33582
G1 X118.044 Y114.221 E0.01087
G1 X117.822 Y114.119 E0.00765
G1 X117.768 Y113.908 F10800.000
;WIPE_START
G1 F8640.000
G1 X117.620 Y113.983 E-0.05631
G1 X117.482 Y113.834 E-0.04679
G1 X117.356 Y113.629 E-0.05560
G1 X117.275 Y113.401 E-0.05579
G1 X117.240 Y113.152 E-0.05808
G1 X117.240 Y111.041 E-0.48744
;WIPE_END
G1 E-0.04000 F2100.000
G1 Z0.600 F10800.000
G1 X129.736 Y102.418
G1 Z0.200
G1 E0.80000 F2100.000
;TYPE:Solid infill
;WIDTH:0.425795
G1 F1200.000
G1 X129.400 Y102.082 E0.01513
G1 X129.242 Y101.986 E0.00589
G1 X129.114 Y101.963 E0.00415
G1 X128.739 Y101.962 E0.01193
G1 X129.573 Y102.797 E0.03757
G1 X129.573 Y103.338 E0.01724
G1 X128.197 Y101.962 E0.06197
G1 X127.655 Y101.961 E0.01726
G1 X129.573 Y103.880 E0.08638
G1 X129.573 Y104.421 E0.01724
G1 X127.113 Y101.960 E0.11079
G1 X126.571 Y101.960 E0.01726
G1 X129.573 Y104.963 E0.13519
M73 Q2 S33
G1 X129.573 Y105.504 E0.01724
G1 X126.028 Y101.959 E0.15960
G1 X125.486 Y101.959 E0.01726
G1 X129.573 Y106.046 E0.18401
G1 X129.573 Y106.587 E0.01724
G1 X124.944 Y101.958 E0.20841
G1 X124.402 Y101.957 E0.01726
G1 X129.573 Y107.129 E0.23282
G1 X129.573 Y107.670 E0.01724
G1 X123.860 Y101.957 E0.25723
G1 X123.318 Y101.956 E0.01726
G1 X129.574 Y108.212 E0.28164
G1 X129.574 Y108.753 E0.01724
G1 X122.776 Y101.956 E0.30604
G1 X122.234 Y101.955 E0.01726
G1 X129.574 Y109.295 E0.33045
G1 X129.574 Y109.836 E0.01724
G1 X121.692 Y101.954 E0.35486
G1 X121.150 Y101.954 E0.01726
G1 X129.574 Y110.378 E0.37926
G1 X129.574 Y110.919 E0.01724
G1 X120.608 Y101.953 E0.40367
G1 X120.066 Y101.953 E0.01726
G1 X129.574 Y111.461 E0.42808
G1 X129.574 Y112.002 E0.01724
G1 X119.524 Y101.952 E0.45248
G1 X118.982 Y101.951 E0.01726
G1 X129.574 Y112.544 E0.47689
G1 X129.574 Y113.085 E0.01724
G1 X118.440 Y101.951 E0.50130
G1 X118.206 Y101.997 E0.00759
G1 X118.051 Y102.104 E0.00599
G1 X129.423 Y113.475 E0.51199
G1 X129.381 Y113.513 E0.00180
G1 X129.190 Y113.600 E0.00666
G1 X129.022 Y113.617 E0.00536
G1 X117.901 Y102.495 E0.50074
G1 X117.901 Y103.036 E0.01724
G1 X128.481 Y113.617 E0.47636
G1 X127.940 Y113.617 E0.01724
G1 X117.901 Y103.578 E0.45198
M73 P3 R33
M73 Q3 S33
G1 X117.901 Y104.119 E0.01724
G1 X127.398 Y113.617 E0.42761
G1 X126.857 Y113.617 E0.01724
G1 X117.901 Y104.661 E0.40323
G1 X117.901 Y105.202 E0.01724
G1 X126.315 Y113.617 E0.37885
G1 X125.774 Y113.617 E0.01724
G1 X117.900 Y105.743 E0.35447
G1 X117.900 Y106.285 E0.01724
G1 X125.232 Y113.617 E0.33010
G1 X124.691 Y113.617 E0.01724
G1 X117.900 Y106.826 E0.30572
G1 X117.900 Y107.368 E0.01724
G1 X124.149 Y113.617 E0.28134
G1 X123.608 Y113.617 E0.01724
G1 X117.900 Y107.909 E0.25697
G1 X117.900 Y108.451 E0.01724
G1 X123.066 Y113.617 E0.23259
G1 X122.525 Y113.617 E0.01724
G1 X117.900 Y108.992 E0.20821
G1 X117.900 Y109.533 E0.01724
G1 X121.983 Y113.617 E0.18383
G1 X121.442 Y113.617 E0.01724
G1 X117.900 Y110.075 E0.15946
G1 X117.900 Y110.616 E0.01724
G1 X120.900 Y113.617 E0.13508
G1 X120.359 Y113.617 E0.01724
G1 X117.900 Y111.158 E0.11070
G1 X117.900 Y111.699 E0.01724
G1 X119.817 Y113.617 E0.08633
G1 X119.276 Y113.617 E0.01724
G1 X117.900 Y112.241 E0.06195
G1 X117.900 Y112.782 E0.01724
G1 X118.735 Y113.617 E0.03757
G1 X118.439 Y113.617 E0.00940
G1 X118.226 Y113.582 E0.00687
G1 X118.076 Y113.499 E0.00548
G1 X117.736 Y113.160 E0.01529
; stop printing object g20.stl id:1 copy 0
; printing object g20.stl id:2 copy 0
;WIPE_START
G1 F8640.000
G1 X118.076 Y113.499 E-0.11086
G1 X118.226 Y113.582 E-0.03975
G1 X118.439 Y113.617 E-0.04982
G1 X118.735 Y113.617 E-0.06816
G1 X117.900 Y112.782 E-0.27250
G1 X117.900 Y112.241 E-0.12502
G1 X118.188 Y112.528 E-0.09390
;WIPE_END
G1 E-0.04000 F2100.000
G1 Z0.600 F10800.000
G1 X140.965 Y113.769
G1 Z0.200
G1 E0.80000 F2100.000
;TYPE:Perimeter
;WIDTH:0.42
G1 F1200.000
G1 X140.784 Y113.605 E0.00766
G1 X140.698 Y113.465 E0.00516
G1 X140.643 Y113.311 E0.00513
G1 X140.617 Y113.126 E0.00584
G1 X140.618 Y102.462 E0.33437
G1 X140.663 Y102.201 E0.00832
G1 X140.728 Y102.058 E0.00491
G1 X140.829 Y101.922 E0.00530
G1 X140.956 Y101.811 E0.00531
G1 X141.105 Y101.729 E0.00532
G1 X141.381 Y101.668 E0.00886
G1 X152.140 Y101.680 E0.33733
G1 X152.328 Y101.715 E0.00602
G1 X152.473 Y101.782 E0.00498
G1 X152.607 Y101.884 E0.00531
G1 X152.717 Y102.013 E0.00529
G1 X152.796 Y102.161 E0.00527
G1 X152.856 Y102.437 E0.00884
G1 X152.857 Y113.112 E0.33472
G1 X152.812 Y113.374 E0.00834
G1 X152.751 Y113.513 E0.00475
G1 X152.658 Y113.643 E0.00501
G1 X152.548 Y113.743 E0.00466
G1 X152.407 Y113.825 E0.00511
G1 X152.254 Y113.876 E0.00508
G1 X152.073 Y113.899 E0.00571
G1 X141.417 Y113.899 E0.33412
G1 X141.140 Y113.854 E0.00879
G1 X141.019 Y113.795 E0.00422
G1 X140.768 Y114.093 F10800.000
;TYPE:External perimeter
G1 F1200.000
G1 X140.620 Y113.983 E0.00579
G1 X140.482 Y113.834 E0.00635
G1 X140.356 Y113.629 E0.00755
G1 X140.275 Y113.401 E0.00758
G1 X140.240 Y113.152 E0.00789
G1 X140.241 Y102.429 E0.33621
G1 X140.300 Y102.089 E0.01084
G1 X140.401 Y101.866 E0.00767
G1 X140.550 Y101.665 E0.00784
G1 X140.739 Y101.500 E0.00788
G1 X140.960 Y101.379 E0.00790
G1 X141.206 Y101.307 E0.00804
G1 X141.361 Y101.291 E0.00489
G1 X152.174 Y101.303 E0.33902
G1 X152.444 Y101.352 E0.00860
G1 X152.669 Y101.457 E0.00777
G1 X152.868 Y101.609 E0.00787
G1 X153.030 Y101.799 E0.00783
G1 X153.147 Y102.019 E0.00779
G1 X153.216 Y102.259 E0.00785
G1 X153.233 Y102.417 E0.00497
G1 X153.234 Y113.144 E0.33634
G1 X153.176 Y113.483 E0.01080
G1 X153.081 Y113.700 E0.00743
G1 X152.942 Y113.895 E0.00751
G1 X152.772 Y114.049 E0.00719
