; generated by PrusaSlicer 2.3.1 on 2021-07-09 at 17:39:20 UTC

; 

; external perimeters extrusion width = 0.45mm
; perimeters extrusion width = 0.45mm
; infill extrusion width = 0.45mm
; solid infill extrusion width = 0.45mm
; top infill extrusion width = 0.40mm
; first layer extrusion width = 0.42mm

M73 P0 R10
M73 Q0 S10
M201 X1000 Y1000 Z200 E5000 ; sets maximum accelerations, mm/sec^2
M203 X200 Y200 Z12 E120 ; sets maximum feedrates, mm/sec
M204 P1250 R1250 T1250 ; sets acceleration (P, T) and retract acceleration (R), mm/sec^2
M205 X8.00 Y8.00 Z0.40 E4.50 ; sets the jerk limits, mm/sec
M205 S0 T0 ; sets the minimum extruding and travel feed rate, mm/sec
M107
;TYPE:Custom
M862.3 P "MK3S" ; printer model check
M862.1 P0.4 ; nozzle diameter check
M115 U3.9.3 ; tell printer latest fw version
G90 ; use absolute coordinates
M83 ; extruder relative mode
M104 S215 ; set extruder temp
M140 S60 ; set bed temp
M190 S60 ; wait for bed temp
M109 S215 ; wait for extruder temp
G28 W ; home all without mesh bed level
G80 ; mesh bed leveling
G1 Y-3.0 F1000.0 ; go outside print area
G92 E0.0
G1 X60.0 E9.0 F1000.0 ; intro line
G1 X100.0 E12.5 F1000.0 ; intro line
G92 E0.0
M221 S95

; Don't change E values below. Excessive value can damage the printer.
M907 E430 ; set extruder motor current
G21 ; set units to millimeters
G90 ; use absolute coordinates
M83 ; use relative distances for extrusion
M900 K0.05 ; Filament gcode LA 1.5
M900 K30 ; Filament gcode LA 1.0
;LAYER_CHANGE
;Z:0.2
;HEIGHT:0.2
;BEFORE_LAYER_CHANGE
G92 E0.0
;0.2


M73 P1 R10
G1 E-0.80000 F2100.000
M73 Q1 S10
G1 Z0.400 F10800.000
;AFTER_LAYER_CHANGE
;0.2
G1 X126.689 Y77.793
G1 Z0.200
G1 E0.80000 F2100.000
M204 S1000
;TYPE:Skirt
;WIDTH:0.42
G1 F1200.000
G1 X133.954 Y77.759 E0.22780
G1 X134.527 Y77.810 E0.01804
G1 X135.143 Y77.986 E0.02008
G1 X135.668 Y78.252 E0.01846
G1 X136.134 Y78.605 E0.01833
G1 X136.523 Y79.030 E0.01806
G1 X136.847 Y79.546 E0.01909
G1 X137.066 Y80.105 E0.01884
G1 X137.180 Y80.728 E0.01985
G1 X137.190 Y115.850 E1.10123
G1 X137.001 Y117.091 E0.03938
G1 X130.956 Y129.685 E0.43798
G1 X130.309 Y130.635 E0.03604
G1 X129.463 Y131.386 E0.03548
G1 X128.885 Y131.732 E0.02112
G1 X128.188 Y132.018 E0.02365
G1 X126.960 Y132.235 E0.03909
G1 X117.493 Y132.240 E0.29683
G1 X116.725 Y132.169 E0.02418
G1 X115.989 Y131.976 E0.02384
G1 X115.359 Y131.703 E0.02156
G1 X114.718 Y131.302 E0.02370
G1 X114.126 Y130.779 E0.02478
G1 X113.673 Y130.226 E0.02241
G1 X113.317 Y129.632 E0.02172
G1 X113.021 Y128.905 E0.02460
G1 X112.810 Y127.553 E0.04291
G1 X112.818 Y118.738 E0.27638
G1 X115.023 Y95.674 E0.72646
M73 P2 R10
M73 Q2 S10
G1 X115.173 Y94.983 E0.02217
G1 X123.136 Y80.143 E0.52805
G1 X123.485 Y79.619 E0.01975
G1 X124.020 Y79.028 E0.02499
G1 X124.648 Y78.537 E0.02498
G1 X125.190 Y78.230 E0.01953
G1 X125.956 Y77.941 E0.02569
G1 X126.630 Y77.805 E0.02154
; printing object Skadis_Container_Hook.stl id:0 copy 0
;WIPE_START
G1 F8640.000
G1 X129.921 Y77.784 E-0.76000
;WIPE_END
G1 E-0.04000 F2100.000
G1 Z0.600 F10800.000
G1 X131.804 Y83.046
G1 Z0.200
G1 E0.80000 F2100.000
;TYPE:Perimeter
G1 F1200.000
G1 X127.896 Y83.046 E0.12253
G1 X127.896 Y111.954 E0.90639
G1 X133.596 Y111.954 E0.17872
G1 X133.596 Y115.806 E0.12079
G1 X133.552 Y116.070 E0.00839
G1 X133.437 Y116.263 E0.00702
G1 X131.804 Y118.077 E0.07654
G1 X131.804 Y113.646 E0.13894
G1 X127.896 Y113.646 E0.12253
G1 X127.896 Y127.519 E0.43496
G1 X127.858 Y127.783 E0.00836
G1 X127.774 Y128.004 E0.00741
G1 X127.656 Y128.198 E0.00712
G1 X127.446 Y128.405 E0.00925
G1 X127.165 Y128.567 E0.01017
G1 X126.961 Y128.622 E0.00664
G1 X126.774 Y128.645 E0.00590
G1 X117.575 Y128.646 E0.28840
G1 X117.346 Y128.627 E0.00721
G1 X117.220 Y128.594 E0.00410
M73 Q3 S10
G1 X116.917 Y128.453 E0.01049
G1 X116.681 Y128.243 E0.00989
G1 X116.511 Y127.979 E0.00983
G1 X116.459 Y127.839 E0.00469
G1 X116.415 Y127.634 E0.00660
G1 X116.404 Y119.354 E0.25960
M73 P3 R10
G1 X118.196 Y119.354 E0.05619
G1 X118.196 Y124.028 E0.14653
G1 X118.225 Y124.428 E0.01258
G1 X118.326 Y124.865 E0.01407
G1 X118.411 Y125.095 E0.00769
G1 X118.609 Y125.486 E0.01376
G1 X118.748 Y125.694 E0.00783
G1 X119.018 Y126.008 E0.01297
G1 X119.202 Y126.179 E0.00789
G1 X119.537 Y126.424 E0.01302
G1 X119.759 Y126.550 E0.00801
G1 X120.151 Y126.711 E0.01328
G1 X120.403 Y126.783 E0.00822
G1 X120.834 Y126.849 E0.01367
G1 X123.466 Y126.851 E0.08251
G1 X123.887 Y126.785 E0.01338
G1 X124.137 Y126.717 E0.00810
G1 X124.539 Y126.550 E0.01367
G1 X124.934 Y126.310 E0.01448
G1 X125.267 Y126.025 E0.01376
G1 X125.556 Y125.688 E0.01391
G1 X125.796 Y125.301 E0.01425
G1 X125.965 Y124.888 E0.01402
G1 X126.076 Y124.435 E0.01461
G1 X126.104 Y124.027 E0.01282
G1 X126.104 Y100.985 E0.72246
G1 X126.099 Y100.790 E0.00613
G1 X126.025 Y100.342 E0.01424
G1 X125.958 Y100.097 E0.00795
G1 X125.793 Y99.694 E0.01367
G1 X125.564 Y99.327 E0.01356
G1 X125.262 Y98.977 E0.01449
G1 X125.076 Y98.806 E0.00792
G1 X124.731 Y98.554 E0.01341
G1 X124.352 Y98.366 E0.01324
G1 X123.927 Y98.226 E0.01405
G1 X123.679 Y98.174 E0.00795
G1 X123.277 Y98.146 E0.01262
G1 X118.604 Y98.146 E0.14653
G1 X118.604 Y96.354 E0.05619
G1 X123.263 Y96.354 E0.14607
G1 X123.472 Y96.350 E0.00657
G1 X123.899 Y96.283 E0.01356
G1 X124.333 Y96.145 E0.01427
G1 X124.736 Y95.941 E0.01417
G1 X124.944 Y95.802 E0.00783
G1 X125.258 Y95.532 E0.01297
G1 X125.429 Y95.348 E0.00789
G1 X125.674 Y95.013 E0.01302
G1 X125.800 Y94.791 E0.00801
G1 X125.961 Y94.399 E0.01328
G1 X126.030 Y94.159 E0.00780
G1 X126.077 Y93.922 E0.00758
G1 X126.104 Y93.527 E0.01242
G1 X126.105 Y82.508 E0.34550
G1 X126.128 Y82.291 E0.00683
G1 X126.191 Y82.074 E0.00709
G1 X126.297 Y81.869 E0.00725
G1 X126.467 Y81.670 E0.00818
G1 X126.673 Y81.513 E0.00814
G1 X126.782 Y81.456 E0.00386
G1 X126.939 Y81.398 E0.00526
G1 X127.260 Y81.354 E0.01014
G1 X133.596 Y81.354 E0.19866
G1 X133.596 Y85.194 E0.12039
G1 X133.563 Y85.422 E0.00723
G1 X133.511 Y85.553 E0.00443
G1 X133.424 Y85.677 E0.00473
G1 X131.804 Y87.471 E0.07579
G1 X131.804 Y83.106 E0.13686
G1 X131.427 Y83.423 F10800.000
;TYPE:External perimeter
G1 F1200.000
G1 X128.273 Y83.423 E0.09888
G1 X128.273 Y111.577 E0.88274
M73 P4 R10
M73 Q4 S10
G1 X133.958 Y111.586 E0.17825
G1 X133.973 Y111.637 E0.00167
G1 X133.973 Y115.826 E0.13135
G1 X133.952 Y116.027 E0.00632
G1 X133.908 Y116.200 E0.00562
G1 X133.736 Y116.494 E0.01068
G1 X131.493 Y118.987 E0.10515
G1 X131.447 Y119.008 E0.00157
G1 X131.427 Y118.962 E0.00158
G1 X131.427 Y114.023 E0.15485
G1 X128.273 Y114.023 E0.09889
G1 X128.273 Y127.537 E0.42372
G1 X128.218 Y127.895 E0.01135
G1 X128.115 Y128.170 E0.00922
G1 X127.958 Y128.427 E0.00944
G1 X127.670 Y128.710 E0.01265
G1 X127.446 Y128.855 E0.00837
G1 X127.291 Y128.924 E0.00531
G1 X127.033 Y128.993 E0.00838
G1 X126.797 Y129.022 E0.00745
G1 X117.560 Y129.023 E0.28963
G1 X117.283 Y129.000 E0.00869
G1 X117.106 Y128.954 E0.00573
G1 X116.933 Y128.890 E0.00581
G1 X116.710 Y128.770 E0.00791
G1 X116.534 Y128.634 E0.00699
G1 X116.395 Y128.488 E0.00631
G1 X116.290 Y128.351 E0.00541
G1 X116.168 Y128.141 E0.00763
G1 X116.096 Y127.945 E0.00654
G1 X116.041 Y127.686 E0.00830
G1 X116.027 Y127.491 E0.00614
G1 X116.027 Y119.035 E0.26512
G1 X116.053 Y118.985 E0.00177
G1 X118.509 Y118.977 E0.07701
G1 X118.565 Y119.001 E0.00190
G1 X118.573 Y124.014 E0.15718
G1 X118.599 Y124.371 E0.01123
G1 X118.688 Y124.756 E0.01239
G1 X118.758 Y124.944 E0.00627
G1 X118.935 Y125.296 E0.01237
G1 X119.049 Y125.466 E0.00641
G1 X119.290 Y125.747 E0.01160
G1 X119.442 Y125.888 E0.00651
G1 X119.742 Y126.107 E0.01164
G1 X119.925 Y126.211 E0.00658
G1 X120.275 Y126.354 E0.01188
G1 X120.484 Y126.414 E0.00681
G1 X120.863 Y126.472 E0.01202
G1 X123.437 Y126.474 E0.08070
G1 X123.808 Y126.416 E0.01178
G1 X124.014 Y126.359 E0.00669
G1 X124.368 Y126.213 E0.01203
G1 X124.712 Y126.004 E0.01261
G1 X125.000 Y125.757 E0.01188
G1 X125.251 Y125.464 E0.01210
G1 X125.459 Y125.129 E0.01237
G1 X125.606 Y124.771 E0.01214
G1 X125.702 Y124.377 E0.01272
G1 X125.727 Y124.014 E0.01140
G1 X125.727 Y100.990 E0.72190
G1 X125.723 Y100.825 E0.00517
G1 X125.656 Y100.422 E0.01280
G1 X125.601 Y100.219 E0.00662
G1 X125.456 Y99.866 E0.01195
G1 X125.259 Y99.551 E0.01165
G1 X124.991 Y99.240 E0.01289
G1 X124.837 Y99.098 E0.00656
G1 X124.534 Y98.878 E0.01174
G1 X124.209 Y98.716 E0.01140
G1 X123.829 Y98.591 E0.01254
G1 X123.627 Y98.548 E0.00647
G1 X123.264 Y98.523 E0.01139
G1 X118.285 Y98.523 E0.15613
G1 X118.238 Y98.509 E0.00154
G1 X118.235 Y96.003 E0.07857
G1 X118.285 Y95.977 E0.00176
G1 X123.259 Y95.977 E0.15596
M73 Q5 S10
G1 X123.439 Y95.973 E0.00566
G1 X123.813 Y95.915 E0.01185
G1 X124.190 Y95.795 E0.01241
G1 X124.546 Y95.615 E0.01252
M73 P5 R10
G1 X124.716 Y95.501 E0.00641
G1 X124.997 Y95.260 E0.01160
G1 X125.138 Y95.108 E0.00651
G1 X125.357 Y94.808 E0.01164
G1 X125.461 Y94.625 E0.00658
G1 X125.604 Y94.275 E0.01188
G1 X125.663 Y94.071 E0.00666
G1 X125.702 Y93.872 E0.00634
G1 X125.727 Y93.514 E0.01126
G1 X125.728 Y82.488 E0.34573
G1 X125.757 Y82.218 E0.00850
G1 X125.839 Y81.934 E0.00928
G1 X125.975 Y81.672 E0.00925
G1 X126.212 Y81.391 E0.01153
G1 X126.470 Y81.193 E0.01018
G1 X126.630 Y81.110 E0.00564
G1 X126.848 Y81.030 E0.00729
G1 X127.234 Y80.977 E0.01223
G1 X133.960 Y80.989 E0.21086
G1 X133.973 Y81.024 E0.00118
G1 X133.973 Y85.221 E0.13160
G1 X133.930 Y85.520 E0.00948
G1 X133.845 Y85.734 E0.00720
G1 X133.720 Y85.912 E0.00684
G1 X131.461 Y88.413 E0.10565
G1 X131.427 Y88.362 E0.00191
G1 X131.427 Y83.483 E0.15297
G1 X131.426 Y83.023 F10800.000
;WIPE_START
G1 F8640.000
G1 X128.273 Y83.423 E-0.72835
G1 X128.273 Y83.560 E-0.03165
;WIPE_END
G1 E-0.04000 F2100.000
G1 Z0.600 F10800.000
G1 X132.720 Y81.467
G1 Z0.200
G1 E0.80000 F2100.000
;TYPE:Solid infill
;WIDTH:0.420151
G1 F1200.000
G1 X133.313 Y82.060 E0.02630
G1 X133.313 Y82.594 E0.01673
G1 X132.357 Y81.637 E0.04244
G1 X131.823 Y81.637 E0.01673
G1 X133.313 Y83.127 E0.06610
G1 X133.313 Y83.661 E0.01673
G1 X131.290 Y81.637 E0.08976
G1 X130.756 Y81.637 E0.01673
G1 X133.313 Y84.194 E0.11343
G1 X133.313 Y84.728 E0.01673
G1 X132.087 Y83.501 E0.05440
G1 X132.087 Y84.035 E0.01673
G1 X133.302 Y85.250 E0.05391
G1 X133.260 Y85.418 E0.00544
G1 X133.115 Y85.597 E0.00720
G1 X132.087 Y84.568 E0.04563
G1 X132.087 Y85.102 E0.01673
G1 X132.862 Y85.877 E0.03440
G1 X132.609 Y86.158 E0.01185
G1 X132.087 Y85.635 E0.02317
G1 X132.087 Y86.169 E0.01673
G1 X132.356 Y86.438 E0.01194
G1 X132.103 Y86.718 E0.01185
G1 X131.917 Y86.532 E0.00824
;WIPE_START
G1 F8640.000
G1 X132.103 Y86.718 E-0.06066
G1 X132.356 Y86.438 E-0.08722
G1 X132.087 Y86.169 E-0.08791
G1 X132.087 Y85.635 E-0.12318
G1 X132.609 Y86.158 E-0.17058
G1 X132.862 Y85.877 E-0.08722
G1 X132.424 Y85.439 E-0.14324
;WIPE_END
G1 E-0.04000 F2100.000
G1 Z0.600 F10800.000
G1 X131.519 Y82.933
G1 Z0.200
G1 E0.80000 F2100.000
G1 F1200.000
G1 X130.223 Y81.637 E0.05748
G1 X129.689 Y81.637 E0.01673
G1 X130.815 Y82.763 E0.04996
G1 X130.282 Y82.763 E0.01673
G1 X129.156 Y81.637 E0.04995
G1 X128.622 Y81.637 E0.01673
G1 X129.748 Y82.763 E0.04995
G1 X129.215 Y82.763 E0.01673
G1 X128.089 Y81.637 E0.04995
G1 X127.555 Y81.637 E0.01673
G1 X128.681 Y82.763 E0.04995
G1 X128.148 Y82.763 E0.01673
G1 X127.053 Y81.668 E0.04859
G1 X126.817 Y81.758 E0.00792
G1 X126.700 Y81.848 E0.00463
G1 X127.615 Y82.763 E0.04059
G1 X127.613 Y83.296 E0.01670
G1 X126.470 Y82.152 E0.05074
G1 X126.407 Y82.346 E0.00642
G1 X126.388 Y82.603 E0.00808
G1 X127.613 Y83.829 E0.05437
G1 X127.613 Y84.363 E0.01673
G1 X126.388 Y83.137 E0.05437
G1 X126.387 Y83.670 E0.01673
G1 X127.613 Y84.896 E0.05438
G1 X127.613 Y85.429 E0.01673
G1 X126.387 Y84.204 E0.05438
G1 X126.387 Y84.737 E0.01673
G1 X127.613 Y85.963 E0.05438
G1 X127.613 Y86.496 E0.01673
G1 X126.387 Y85.271 E0.05438
G1 X126.387 Y85.804 E0.01673
G1 X127.613 Y87.030 E0.05438
G1 X127.613 Y87.563 E0.01673
G1 X126.387 Y86.337 E0.05438
G1 X126.387 Y86.871 E0.01673
M73 Q6 S10
G1 X127.613 Y88.097 E0.05439
M73 P6 R10
G1 X127.613 Y88.630 E0.01673
G1 X126.387 Y87.404 E0.05439
G1 X126.387 Y87.938 E0.01673
G1 X127.613 Y89.164 E0.05439
G1 X127.613 Y89.697 E0.01673
G1 X126.387 Y88.471 E0.05439
G1 X126.387 Y89.005 E0.01673
G1 X127.613 Y90.231 E0.05439
G1 X127.613 Y90.764 E0.01673
G1 X126.387 Y89.538 E0.05439
G1 X126.387 Y90.072 E0.01673
G1 X127.613 Y91.298 E0.05440
G1 X127.613 Y91.831 E0.01673
G1 X126.387 Y90.605 E0.05440
G1 X126.387 Y91.138 E0.01673
G1 X127.613 Y92.365 E0.05440
G1 X127.613 Y92.898 E0.01673
G1 X126.387 Y91.672 E0.05440
G1 X126.387 Y92.205 E0.01673
G1 X127.613 Y93.432 E0.05440
G1 X127.613 Y93.965 E0.01673
G1 X126.387 Y92.739 E0.05440
G1 X126.387 Y93.272 E0.01673
G1 X127.613 Y94.499 E0.05440
G1 X127.613 Y95.032 E0.01673
G1 X126.369 Y93.788 E0.05518
G1 X126.358 Y93.960 E0.00539
G1 X126.298 Y94.250 E0.00930
G1 X127.613 Y95.566 E0.05836
G1 X127.613 Y96.099 E0.01673
G1 X126.164 Y94.650 E0.06430
G1 X125.997 Y95.017 E0.01264
G1 X127.613 Y96.633 E0.07169
G1 X127.613 Y97.166 E0.01673
G1 X125.786 Y95.339 E0.08105
G1 X125.549 Y95.635 E0.01190
G1 X127.613 Y97.700 E0.09158
G1 X127.613 Y98.233 E0.01673
G1 X125.273 Y95.893 E0.10383
G1 X124.971 Y96.124 E0.01193
G1 X127.613 Y98.767 E0.11722
G1 X127.613 Y99.300 E0.01673
G1 X124.626 Y96.313 E0.13250
G1 X124.441 Y96.407 E0.00653
G1 X124.248 Y96.469 E0.00633
G1 X127.613 Y99.834 E0.14927
G1 X127.613 Y100.367 E0.01673
G1 X123.827 Y96.581 E0.16796
G1 X123.497 Y96.632 E0.01049
G1 X123.348 Y96.635 E0.00467
G1 X127.613 Y100.901 E0.18921
G1 X127.613 Y101.434 E0.01673
G1 X126.242 Y100.063 E0.06083
G1 X126.046 Y99.564 E0.01681
G1 X125.792 Y99.158 E0.01501
G1 X125.466 Y98.779 E0.01569
G1 X125.256 Y98.587 E0.00894
G1 X124.878 Y98.311 E0.01466
G1 X124.460 Y98.104 E0.01463
G1 X124.196 Y98.017 E0.00872
G1 X122.816 Y96.637 E0.06122
G1 X122.283 Y96.637 E0.01673
G1 X123.525 Y97.880 E0.05513
G1 X122.975 Y97.863 E0.01726
G1 X121.749 Y96.637 E0.05440
G1 X121.216 Y96.637 E0.01673
G1 X122.442 Y97.863 E0.05440
G1 X121.908 Y97.863 E0.01673
G1 X120.682 Y96.637 E0.05440
G1 X120.149 Y96.637 E0.01673
G1 X121.375 Y97.863 E0.05440
G1 X120.842 Y97.863 E0.01673
G1 X119.615 Y96.637 E0.05440
G1 X119.082 Y96.637 E0.01673
G1 X120.308 Y97.863 E0.05440
G1 X119.775 Y97.863 E0.01673
G1 X118.887 Y96.975 E0.03938
G1 X118.887 Y97.509 E0.01673
G1 X119.411 Y98.033 E0.02324
;WIPE_START
G1 F8640.000
G1 X118.887 Y97.509 E-0.17109
G1 X118.887 Y96.975 E-0.12318
G1 X119.775 Y97.863 E-0.28988
G1 X120.308 Y97.863 E-0.12318
G1 X120.147 Y97.702 E-0.05266
;WIPE_END
G1 E-0.04000 F2100.000
G1 Z0.600 F10800.000
G1 X126.170 Y100.524
G1 Z0.200
G1 E0.80000 F2100.000
G1 F1200.000
G1 X127.613 Y101.968 E0.06402
G1 X127.613 Y102.501 E0.01673
G1 X126.387 Y101.275 E0.05441
M73 Q7 S10
G1 X126.387 Y101.808 E0.01673
G1 X127.613 Y103.034 E0.05441
M73 P7 R10
G1 X127.613 Y103.568 E0.01673
G1 X126.387 Y102.342 E0.05441
G1 X126.387 Y102.875 E0.01673
G1 X127.613 Y104.101 E0.05441
G1 X127.613 Y104.635 E0.01673
G1 X126.387 Y103.408 E0.05441
G1 X126.387 Y103.942 E0.01673
G1 X127.613 Y105.168 E0.05441
G1 X127.613 Y105.702 E0.01673
G1 X126.387 Y104.475 E0.05441
G1 X126.387 Y105.009 E0.01673
G1 X127.613 Y106.235 E0.05441
G1 X127.613 Y106.769 E0.01673
G1 X126.387 Y105.542 E0.05441
G1 X126.387 Y106.076 E0.01673
G1 X127.613 Y107.302 E0.05441
G1 X127.613 Y107.836 E0.01673
G1 X126.387 Y106.609 E0.05441
G1 X126.387 Y107.143 E0.01673
G1 X127.613 Y108.369 E0.05441
G1 X127.613 Y108.903 E0.01673
G1 X126.387 Y107.676 E0.05441
G1 X126.387 Y108.210 E0.01673
G1 X127.613 Y109.436 E0.05441
G1 X127.613 Y109.970 E0.01673
G1 X126.387 Y108.743 E0.05441
G1 X126.387 Y109.277 E0.01673
G1 X127.613 Y110.503 E0.05441
G1 X127.613 Y111.037 E0.01673
G1 X126.387 Y109.810 E0.05441
G1 X126.387 Y110.344 E0.01673
G1 X127.783 Y111.740 E0.06193
;WIPE_START
G1 F8640.000
G1 X126.387 Y110.344 E-0.45591
G1 X126.387 Y109.810 E-0.12318
G1 X126.941 Y110.364 E-0.18091
;WIPE_END
G1 E-0.04000 F2100.000
G1 Z0.600 F10800.000
G1 X132.912 Y112.067
G1 Z0.200
G1 E0.80000 F2100.000
G1 F1200.000
G1 X133.313 Y112.469 E0.01782
G1 X133.313 Y113.002 E0.01673
G1 X132.548 Y112.237 E0.03396
G1 X132.014 Y112.237 E0.01673
G1 X133.313 Y113.536 E0.05762
G1 X133.313 Y114.069 E0.01673
G1 X131.481 Y112.237 E0.08129
G1 X130.947 Y112.237 E0.01673
G1 X133.313 Y114.603 E0.10495
