; generated by PrusaSlicer 2.3.1 on 2021-06-22 at 23:06:59 UTC

; 

; external perimeters extrusion width = 0.45mm
; perimeters extrusion width = 0.45mm
; infill extrusion width = 0.45mm
; solid infill extrusion width = 0.45mm
; top infill extrusion width = 0.40mm
; first layer extrusion width = 0.42mm

M73 P0 R9
M73 Q0 S9
M201 X1000 Y1000 Z200 E5000 ; sets maximum accelerations, mm/sec^2
M203 X200 Y200 Z12 E120 ; sets maximum feedrates, mm/sec
M204 P1250 R1250 T1250 ; sets acceleration (P, T) and retract acceleration (R), mm/sec^2
M205 X8.00 Y8.00 Z0.40 E4.50 ; sets the jerk limits, mm/sec
M205 S0 T0 ; sets the minimum extruding and travel feed rate, mm/sec
M107
;TYPE:Custom
M862.3 P "MK3S" ; printer model check
M862.1 P0.4 ; nozzle diameter check
M115 U3.9.3 ; tell printer latest fw version
G90 ; use absolute coordinates
M83 ; extruder relative mode
M104 S215 ; set extruder temp
M140 S60 ; set bed temp
M190 S60 ; wait for bed temp
M109 S215 ; wait for extruder temp
G28 W ; home all without mesh bed level
G80 ; mesh bed leveling
G1 Y-3.0 F1000.0 ; go outside print area
G92 E0.0
G1 X60.0 E9.0 F1000.0 ; intro line
G1 X100.0 E12.5 F1000.0 ; intro line
G92 E0.0
M221 S95

; Don't change E values below. Excessive value can damage the printer.
M907 E430 ; set extruder motor current
G21 ; set units to millimeters
G90 ; use absolute coordinates
M83 ; use relative distances for extrusion
M900 K0.05 ; Filament gcode LA 1.5
M900 K30 ; Filament gcode LA 1.0
;LAYER_CHANGE
;Z:0.2
;HEIGHT:0.2
;BEFORE_LAYER_CHANGE
G92 E0.0
;0.2


M73 P1 R9
M73 Q1 S9
G1 E-0.80000 F2100.000
G1 Z0.400 F10800.000
;AFTER_LAYER_CHANGE
;0.2
G1 X4.239 Y12.748
G1 Z0.200
G1 E0.80000 F2100.000
M204 S1000
;TYPE:Skirt
;WIDTH:0.42
G1 F1200.000
G1 X4.995 Y12.623 E0.02402
G1 X245.004 Y12.623 E7.52530
M73 P3 R9
M73 Q3 S9
G1 X245.906 Y12.802 E0.02884
G1 X246.675 Y13.313 E0.02896
G1 X247.191 Y14.079 E0.02896
G1 X247.377 Y14.980 E0.02884
G1 X247.377 Y195.011 E5.64476
M73 P5 R9
M73 Q5 S9
G1 X247.312 Y195.551 E0.01704
G1 X247.127 Y196.062 E0.01704
G1 X246.830 Y196.517 E0.01704
G1 X246.437 Y196.893 E0.01704
G1 X245.761 Y197.252 E0.02402
G1 X245.005 Y197.377 E0.02402
G1 X4.996 Y197.377 E7.52530
M73 P7 R8
M73 Q7 S8
G1 X4.453 Y197.313 E0.01716
G1 X3.942 Y197.128 E0.01704
G1 X3.486 Y196.832 E0.01704
G1 X3.107 Y196.437 E0.01716
G1 X2.748 Y195.761 E0.02402
G1 X2.623 Y195.005 E0.02402
G1 X2.623 Y14.992 E5.64417
M73 P9 R8
M73 Q9 S8
G1 X2.687 Y14.453 E0.01704
G1 X2.872 Y13.942 E0.01704
G1 X3.168 Y13.486 E0.01704
G1 X3.563 Y13.107 E0.01716
G1 X4.186 Y12.776 E0.02214
; printing object firstlayer.stl id:0 copy 0
;WIPE_START
G1 F8640.000
G1 X4.995 Y12.623 E-0.19007
G1 X7.463 Y12.623 E-0.56993
;WIPE_END
G1 E-0.04000 F2100.000
G1 Z0.600 F10800.000
G1 X5.787 Y175.787
G1 Z0.200
G1 E0.80000 F2100.000
;TYPE:Perimeter
G1 F1200.000
G1 X24.213 Y175.787 E0.57773
G1 X24.213 Y194.213 E0.57773
G1 X5.787 Y194.213 E0.57773
M73 Q10 S8
G1 X5.787 Y175.847 E0.57585
M73 P10 R8
G1 X5.410 Y175.410 F10800.000
;TYPE:External perimeter
G1 F1200.000
G1 X24.590 Y175.410 E0.60138
G1 X24.590 Y194.590 E0.60138
G1 X5.410 Y194.590 E0.60138
G1 X5.410 Y175.470 E0.59949
G1 X5.796 Y175.514 F10800.000
;WIPE_START
G1 F8640.000
G1 X8.701 Y175.460 E-0.76000
;WIPE_END
G1 E-0.04000 F2100.000
G1 Z0.600 F10800.000
G1 X24.100 Y176.667
G1 Z0.200
G1 E0.80000 F2100.000
;TYPE:Solid infill
;WIDTH:0.422206
G1 F1200.000
G1 X23.503 Y176.070 E0.02664
G1 X22.966 Y176.070 E0.01692
M73 Q11 S8
G1 X23.930 Y177.034 E0.04299
G1 X23.930 Y177.570 E0.01692
G1 X22.430 Y176.070 E0.06692
G1 X21.893 Y176.070 E0.01692
G1 X23.930 Y178.107 E0.09084
G1 X23.930 Y178.643 E0.01692
G1 X21.357 Y176.070 E0.11477
M73 P11 R8
G1 X20.821 Y176.070 E0.01692
G1 X23.930 Y179.179 E0.13869
G1 X23.930 Y179.716 E0.01692
G1 X20.284 Y176.070 E0.16261
G1 X19.748 Y176.070 E0.01692
G1 X23.930 Y180.252 E0.18654
G1 X23.930 Y180.789 E0.01692
G1 X19.211 Y176.070 E0.21046
G1 X18.675 Y176.070 E0.01692
G1 X23.930 Y181.325 E0.23438
G1 X23.930 Y181.861 E0.01692
G1 X18.139 Y176.070 E0.25831
G1 X17.602 Y176.070 E0.01692
G1 X23.930 Y182.398 E0.28223
G1 X23.930 Y182.934 E0.01692
G1 X17.066 Y176.070 E0.30615
G1 X16.529 Y176.070 E0.01692
G1 X23.930 Y183.471 E0.33008
G1 X23.930 Y184.007 E0.01692
G1 X15.993 Y176.070 E0.35400
G1 X15.457 Y176.070 E0.01692
G1 X23.930 Y184.543 E0.37793
M73 Q12 S8
G1 X23.930 Y185.080 E0.01692
G1 X14.920 Y176.070 E0.40185
M73 P12 R8
G1 X14.384 Y176.070 E0.01692
G1 X23.930 Y185.616 E0.42577
G1 X23.930 Y186.152 E0.01692
G1 X13.848 Y176.070 E0.44970
G1 X13.311 Y176.070 E0.01692
G1 X23.930 Y186.689 E0.47362
G1 X23.930 Y187.225 E0.01692
G1 X12.775 Y176.070 E0.49754
G1 X12.238 Y176.070 E0.01692
G1 X23.930 Y187.762 E0.52147
G1 X23.930 Y188.298 E0.01692
G1 X11.702 Y176.070 E0.54539
M73 Q13 S8
G1 X11.166 Y176.070 E0.01692
G1 X23.930 Y188.834 E0.56931
M73 P13 R8
G1 X23.930 Y189.371 E0.01692
G1 X10.629 Y176.070 E0.59324
G1 X10.093 Y176.070 E0.01692
G1 X23.930 Y189.907 E0.61716
G1 X23.930 Y190.444 E0.01692
G1 X9.556 Y176.070 E0.64109
G1 X9.020 Y176.070 E0.01692
G1 X23.930 Y190.980 E0.66501
G1 X23.930 Y191.516 E0.01692
G1 X8.484 Y176.070 E0.68893
M73 P14 R8
M73 Q14 S8
G1 X7.947 Y176.070 E0.01692
G1 X23.930 Y192.053 E0.71286
G1 X23.930 Y192.589 E0.01692
G1 X7.411 Y176.070 E0.73678
G1 X6.874 Y176.070 E0.01692
G1 X23.930 Y193.126 E0.76070
G1 X23.930 Y193.662 E0.01692
G1 X6.338 Y176.070 E0.78463
M73 Q15 S8
G1 X6.070 Y176.070 E0.00846
G1 X6.070 Y176.338 E0.00846
G1 X23.662 Y193.930 E0.78462
M73 P15 R8
G1 X23.126 Y193.930 E0.01692
G1 X6.070 Y176.874 E0.76070
G1 X6.070 Y177.411 E0.01692
G1 X22.589 Y193.930 E0.73678
G1 X22.053 Y193.930 E0.01692
G1 X6.070 Y177.947 E0.71285
G1 X6.070 Y178.484 E0.01692
G1 X21.516 Y193.930 E0.68893
M73 P16 R8
M73 Q16 S8
G1 X20.980 Y193.930 E0.01692
G1 X6.070 Y179.020 E0.66501
G1 X6.070 Y179.556 E0.01692
G1 X20.444 Y193.930 E0.64108
G1 X19.907 Y193.930 E0.01692
G1 X6.070 Y180.093 E0.61716
G1 X6.070 Y180.629 E0.01692
G1 X19.371 Y193.930 E0.59324
G1 X18.834 Y193.930 E0.01692
G1 X6.070 Y181.166 E0.56931
M73 P17 R8
M73 Q17 S8
G1 X6.070 Y181.702 E0.01692
G1 X18.298 Y193.930 E0.54539
G1 X17.762 Y193.930 E0.01692
G1 X6.070 Y182.238 E0.52146
G1 X6.070 Y182.775 E0.01692
G1 X17.225 Y193.930 E0.49754
M73 P17 R7
G1 X16.689 Y193.930 E0.01692
G1 X6.070 Y183.311 E0.47362
G1 X6.070 Y183.848 E0.01692
G1 X16.152 Y193.930 E0.44969
G1 X15.616 Y193.930 E0.01692
G1 X6.070 Y184.384 E0.42577
G1 X6.070 Y184.920 E0.01692
G1 X15.080 Y193.930 E0.40185
M73 P18 R7
M73 Q18 S8
G1 X14.543 Y193.930 E0.01692
G1 X6.070 Y185.457 E0.37792
M73 Q18 S7
G1 X6.070 Y185.993 E0.01692
G1 X14.007 Y193.930 E0.35400
G1 X13.470 Y193.930 E0.01692
G1 X6.070 Y186.530 E0.33007
G1 X6.070 Y187.066 E0.01692
G1 X12.934 Y193.930 E0.30615
G1 X12.398 Y193.930 E0.01692
G1 X6.070 Y187.602 E0.28223
G1 X6.070 Y188.139 E0.01692
G1 X11.861 Y193.930 E0.25830
G1 X11.325 Y193.930 E0.01692
G1 X6.070 Y188.675 E0.23438
G1 X6.070 Y189.211 E0.01692
G1 X10.789 Y193.930 E0.21046
G1 X10.252 Y193.930 E0.01692
G1 X6.070 Y189.748 E0.18653
G1 X6.070 Y190.284 E0.01692
G1 X9.716 Y193.930 E0.16261
G1 X9.179 Y193.930 E0.01692
G1 X6.070 Y190.821 E0.13869
G1 X6.070 Y191.357 E0.01692
G1 X8.643 Y193.930 E0.11476
G1 X8.107 Y193.930 E0.01692
M73 Q19 S7
G1 X6.070 Y191.893 E0.09084
M73 P19 R7
G1 X6.070 Y192.430 E0.01692
G1 X7.570 Y193.930 E0.06691
G1 X7.034 Y193.930 E0.01692
G1 X6.070 Y192.966 E0.04299
G1 X6.070 Y193.503 E0.01692
G1 X6.667 Y194.100 E0.02664
;WIPE_START
G1 F8640.000
G1 X6.070 Y193.503 E-0.19501
G1 X6.070 Y192.966 E-0.12385
G1 X7.034 Y193.930 E-0.31476
G1 X7.570 Y193.930 E-0.12385
G1 X7.562 Y193.922 E-0.00252
;WIPE_END
G1 E-0.04000 F2100.000
G1 Z0.600 F10800.000
G1 X115.787 Y194.100
G1 Z0.200
G1 E0.80000 F2100.000
;TYPE:Perimeter
;WIDTH:0.42
G1 F1200.000
G1 X115.787 Y175.787 E0.57418
G1 X134.213 Y175.787 E0.57773
G1 X134.213 Y194.213 E0.57773
G1 X115.787 Y194.213 E0.57773
M73 Q20 S7
G1 X115.787 Y194.160 E0.00167
G1 X115.410 Y194.590 F10800.000
;TYPE:External perimeter
G1 F1200.000
G1 X115.410 Y175.410 E0.60138
M73 P20 R7
G1 X134.590 Y175.410 E0.60138
G1 X134.590 Y194.590 E0.60138
G1 X115.470 Y194.590 E0.59949
G1 X115.514 Y194.204 F10800.000
;WIPE_START
G1 F8640.000
G1 X115.460 Y191.299 E-0.76000
;WIPE_END
G1 E-0.04000 F2100.000
G1 Z0.600 F10800.000
G1 X134.100 Y176.667
G1 Z0.200
G1 E0.80000 F2100.000
;TYPE:Solid infill
;WIDTH:0.422206
G1 F1200.000
G1 X133.503 Y176.070 E0.02664
G1 X132.966 Y176.070 E0.01692
G1 X133.930 Y177.034 E0.04299
G1 X133.930 Y177.570 E0.01692
G1 X132.430 Y176.070 E0.06692
G1 X131.893 Y176.070 E0.01692
G1 X133.930 Y178.107 E0.09084
G1 X133.930 Y178.643 E0.01692
G1 X131.357 Y176.070 E0.11477
G1 X130.821 Y176.070 E0.01692
M73 Q21 S7
G1 X133.930 Y179.179 E0.13869
G1 X133.930 Y179.716 E0.01692
G1 X130.284 Y176.070 E0.16261
M73 P21 R7
G1 X129.748 Y176.070 E0.01692
G1 X133.930 Y180.252 E0.18654
G1 X133.930 Y180.789 E0.01692
G1 X129.211 Y176.070 E0.21046
G1 X128.675 Y176.070 E0.01692
G1 X133.930 Y181.325 E0.23438
G1 X133.930 Y181.861 E0.01692
G1 X128.139 Y176.070 E0.25831
G1 X127.602 Y176.070 E0.01692
G1 X133.930 Y182.398 E0.28223
G1 X133.930 Y182.934 E0.01692
G1 X127.066 Y176.070 E0.30615
G1 X126.529 Y176.070 E0.01692
G1 X133.930 Y183.471 E0.33008
G1 X133.930 Y184.007 E0.01692
G1 X125.993 Y176.070 E0.35400
G1 X125.457 Y176.070 E0.01692
G1 X133.930 Y184.543 E0.37793
G1 X133.930 Y185.080 E0.01692
G1 X124.920 Y176.070 E0.40185
M73 Q22 S7
G1 X124.384 Y176.070 E0.01692
G1 X133.930 Y185.616 E0.42577
M73 P22 R7
G1 X133.930 Y186.152 E0.01692
G1 X123.848 Y176.070 E0.44970
G1 X123.311 Y176.070 E0.01692
G1 X133.930 Y186.689 E0.47362
G1 X133.930 Y187.225 E0.01692
G1 X122.775 Y176.070 E0.49754
G1 X122.238 Y176.070 E0.01692
G1 X133.930 Y187.762 E0.52147
G1 X133.930 Y188.298 E0.01692
G1 X121.702 Y176.070 E0.54539
G1 X121.166 Y176.070 E0.01692
G1 X133.930 Y188.834 E0.56931
M73 P23 R7
M73 Q23 S7
G1 X133.930 Y189.371 E0.01692
G1 X120.629 Y176.070 E0.59324
G1 X120.093 Y176.070 E0.01692
G1 X133.930 Y189.907 E0.61716
G1 X133.930 Y190.444 E0.01692
G1 X119.556 Y176.070 E0.64109
G1 X119.020 Y176.070 E0.01692
G1 X133.930 Y190.980 E0.66501
G1 X133.930 Y191.516 E0.01692
G1 X118.484 Y176.070 E0.68893
M73 Q24 S7
G1 X117.947 Y176.070 E0.01692
G1 X133.930 Y192.053 E0.71286
M73 P24 R7
G1 X133.930 Y192.589 E0.01692
G1 X117.411 Y176.070 E0.73678
G1 X116.874 Y176.070 E0.01692
G1 X133.930 Y193.126 E0.76070
G1 X133.930 Y193.662 E0.01692
G1 X116.338 Y176.070 E0.78463
G1 X116.070 Y176.070 E0.00846
G1 X116.070 Y176.338 E0.00846
G1 X133.662 Y193.930 E0.78462
M73 P25 R7
M73 Q25 S7
G1 X133.126 Y193.930 E0.01692
G1 X116.070 Y176.874 E0.76070
G1 X116.070 Y177.411 E0.01692
G1 X132.589 Y193.930 E0.73678
G1 X132.053 Y193.930 E0.01692
G1 X116.070 Y177.947 E0.71285
G1 X116.070 Y178.484 E0.01692
G1 X131.516 Y193.930 E0.68893
M73 Q26 S7
G1 X130.980 Y193.930 E0.01692
G1 X116.070 Y179.020 E0.66501
M73 P26 R7
G1 X116.070 Y179.556 E0.01692
G1 X130.444 Y193.930 E0.64108
G1 X129.907 Y193.930 E0.01692
G1 X116.070 Y180.093 E0.61716
G1 X116.070 Y180.629 E0.01692
G1 X129.371 Y193.930 E0.59324
G1 X128.834 Y193.930 E0.01692
G1 X116.070 Y181.166 E0.56931
G1 X116.070 Y181.702 E0.01692
G1 X128.298 Y193.930 E0.54539
M73 P27 R7
M73 Q27 S7
G1 X127.762 Y193.930 E0.01692
G1 X116.070 Y182.238 E0.52146
G1 X116.070 Y182.775 E0.01692
G1 X127.225 Y193.930 E0.49754
G1 X126.689 Y193.930 E0.01692
G1 X116.070 Y183.311 E0.47362
G1 X116.070 Y183.848 E0.01692
G1 X126.152 Y193.930 E0.44969
G1 X125.616 Y193.930 E0.01692
G1 X116.070 Y184.384 E0.42577
G1 X116.070 Y184.920 E0.01692
G1 X125.080 Y193.930 E0.40185
G1 X124.543 Y193.930 E0.01692
G1 X116.070 Y185.457 E0.37792
M73 P28 R7
M73 Q28 S7
G1 X116.070 Y185.993 E0.01692
G1 X124.007 Y193.930 E0.35400
G1 X123.470 Y193.930 E0.01692
G1 X116.070 Y186.530 E0.33008
G1 X116.070 Y187.066 E0.01692
G1 X122.934 Y193.930 E0.30615
G1 X122.398 Y193.930 E0.01692
G1 X116.070 Y187.602 E0.28223
M73 P28 R6
G1 X116.070 Y188.139 E0.01692
G1 X121.861 Y193.930 E0.25830
G1 X121.325 Y193.930 E0.01692
G1 X116.070 Y188.675 E0.23438
G1 X116.070 Y189.211 E0.01692
G1 X120.789 Y193.930 E0.21046
G1 X120.252 Y193.930 E0.01692
G1 X116.070 Y189.748 E0.18653
G1 X116.070 Y190.284 E0.01692
G1 X119.716 Y193.930 E0.16261
G1 X119.179 Y193.930 E0.01692
G1 X116.070 Y190.821 E0.13869
G1 X116.070 Y191.357 E0.01692
G1 X118.643 Y193.930 E0.11476
G1 X118.107 Y193.930 E0.01692
G1 X116.070 Y191.893 E0.09084
G1 X116.070 Y192.430 E0.01692
G1 X117.570 Y193.930 E0.06691
G1 X117.034 Y193.930 E0.01692
G1 X116.070 Y192.966 E0.04299
G1 X116.070 Y193.503 E0.01692
G1 X116.667 Y194.100 E0.02664
;WIPE_START
G1 F8640.000
G1 X116.070 Y193.503 E-0.19501
G1 X116.070 Y192.966 E-0.12385
G1 X117.034 Y193.930 E-0.31476
M73 P29 R6
G1 X117.570 Y193.930 E-0.12385
M73 Q29 S7
G1 X117.562 Y193.922 E-0.00252
;WIPE_END
G1 E-0.04000 F2100.000
G1 Z0.600 F10800.000
G1 X225.787 Y194.100
M73 Q29 S6
G1 Z0.200
G1 E0.80000 F2100.000
;TYPE:Perimeter
;WIDTH:0.42
G1 F1200.000
G1 X225.787 Y175.787 E0.57418
G1 X244.213 Y175.787 E0.57773
G1 X244.213 Y194.213 E0.57773
G1 X225.787 Y194.213 E0.57773
G1 X225.787 Y194.160 E0.00167
G1 X225.410 Y194.590 F10800.000
;TYPE:External perimeter
G1 F1200.000
G1 X225.410 Y175.410 E0.60138
M73 P30 R6
M73 Q30 S6
G1 X244.590 Y175.410 E0.60138
G1 X244.590 Y194.590 E0.60138
G1 X225.470 Y194.590 E0.59949
G1 X225.514 Y194.204 F10800.000
;WIPE_START
G1 F8640.000
G1 X225.460 Y191.299 E-0.76000
;WIPE_END
G1 E-0.04000 F2100.000
G1 Z0.600 F10800.000
G1 X244.100 Y176.667
G1 Z0.200
G1 E0.80000 F2100.000
;TYPE:Solid infill
;WIDTH:0.422206
G1 F1200.000
G1 X243.503 Y176.070 E0.02664
G1 X242.966 Y176.070 E0.01692
G1 X243.930 Y177.034 E0.04299
G1 X243.930 Y177.570 E0.01692
G1 X242.430 Y176.070 E0.06692
G1 X241.893 Y176.070 E0.01692
G1 X243.930 Y178.107 E0.09084
G1 X243.930 Y178.643 E0.01692
G1 X241.357 Y176.070 E0.11477
G1 X240.821 Y176.070 E0.01692
G1 X243.930 Y179.179 E0.13869
G1 X243.930 Y179.716 E0.01692
G1 X240.284 Y176.070 E0.16261
G1 X239.748 Y176.070 E0.01692
G1 X243.930 Y180.252 E0.18654
M73 Q31 S6
G1 X243.930 Y180.789 E0.01692
G1 X239.211 Y176.070 E0.21046
M73 P31 R6
G1 X238.675 Y176.070 E0.01692
G1 X243.930 Y181.325 E0.23438
G1 X243.930 Y181.861 E0.01692
G1 X238.139 Y176.070 E0.25831
G1 X237.602 Y176.070 E0.01692
G1 X243.930 Y182.398 E0.28223
G1 X243.930 Y182.934 E0.01692
G1 X237.066 Y176.070 E0.30615
G1 X236.529 Y176.070 E0.01692
G1 X243.930 Y183.471 E0.33008
G1 X243.930 Y184.007 E0.01692
G1 X235.993 Y176.070 E0.35400
G1 X235.457 Y176.070 E0.01692
G1 X243.930 Y184.543 E0.37793
G1 X243.930 Y185.080 E0.01692
G1 X234.920 Y176.070 E0.40185
G1 X234.384 Y176.070 E0.01692
G1 X243.930 Y185.616 E0.42577
M73 Q32 S6
G1 X243.930 Y186.152 E0.01692
G1 X233.848 Y176.070 E0.44970
M73 P32 R6
G1 X233.311 Y176.070 E0.01692
G1 X243.930 Y186.689 E0.47362
G1 X243.930 Y187.225 E0.01692
G1 X232.775 Y176.070 E0.49754
G1 X232.238 Y176.070 E0.01692
G1 X243.930 Y187.762 E0.52147
G1 X243.930 Y188.298 E0.01692
G1 X231.702 Y176.070 E0.54539
G1 X231.166 Y176.070 E0.01692
G1 X243.930 Y188.834 E0.56931
G1 X243.930 Y189.371 E0.01692
G1 X230.629 Y176.070 E0.59324
M73 P33 R6
M73 Q33 S6
G1 X230.093 Y176.070 E0.01692
G1 X243.930 Y189.907 E0.61716
G1 X243.930 Y190.444 E0.01692
G1 X229.556 Y176.070 E0.64109
G1 X229.020 Y176.070 E0.01692
G1 X243.930 Y190.980 E0.66501
G1 X243.930 Y191.516 E0.01692
G1 X228.484 Y176.070 E0.68893
G1 X227.947 Y176.070 E0.01692
G1 X243.930 Y192.053 E0.71286
M73 P34 R6
M73 Q34 S6
G1 X243.930 Y192.589 E0.01692
G1 X227.411 Y176.070 E0.73678
G1 X226.874 Y176.070 E0.01692
G1 X243.930 Y193.126 E0.76070
G1 X243.930 Y193.662 E0.01692
G1 X226.338 Y176.070 E0.78463
G1 X226.070 Y176.070 E0.00846
G1 X226.070 Y176.338 E0.00846
G1 X243.662 Y193.930 E0.78462
M73 P35 R6
M73 Q35 S6
G1 X243.126 Y193.930 E0.01692
G1 X226.070 Y176.874 E0.76070
G1 X226.070 Y177.411 E0.01692
G1 X242.589 Y193.930 E0.73678
G1 X242.053 Y193.930 E0.01692
G1 X226.070 Y177.947 E0.71285
G1 X226.070 Y178.484 E0.01692
G1 X241.516 Y193.930 E0.68893
G1 X240.980 Y193.930 E0.01692
G1 X226.070 Y179.020 E0.66501
M73 P36 R6
M73 Q36 S6
G1 X226.070 Y179.556 E0.01692
G1 X240.444 Y193.930 E0.64108
G1 X239.907 Y193.930 E0.01692
G1 X226.070 Y180.093 E0.61716
