; generated by PrusaSlicer 2.3.1 on 2021-07-26 at 01:37:29 UTC

; 

; external perimeters extrusion width = 0.45mm
; perimeters extrusion width = 0.45mm
; infill extrusion width = 0.45mm
; solid infill extrusion width = 0.45mm
; top infill extrusion width = 0.40mm
; first layer extrusion width = 0.42mm

M73 P0 R29
M73 Q0 S29
M201 X1000 Y1000 Z200 E5000 ; sets maximum accelerations, mm/sec^2
M203 X200 Y200 Z12 E120 ; sets maximum feedrates, mm/sec
M204 P1250 R1250 T1250 ; sets acceleration (P, T) and retract acceleration (R), mm/sec^2
M205 X8.00 Y8.00 Z0.40 E4.50 ; sets the jerk limits, mm/sec
M205 S0 T0 ; sets the minimum extruding and travel feed rate, mm/sec
M107
;TYPE:Custom
M862.3 P "MK3S" ; printer model check
M862.1 P0.4 ; nozzle diameter check
M115 U3.9.3 ; tell printer latest fw version
G90 ; use absolute coordinates
M83 ; extruder relative mode
M104 S215 ; set extruder temp
M140 S60 ; set bed temp
M190 S60 ; wait for bed temp
M109 S215 ; wait for extruder temp
G28 W ; home all without mesh bed level
G80 ; mesh bed leveling
G1 Y-3.0 F1000.0 ; go outside print area
G92 E0.0
G1 X60.0 E9.0 F1000.0 ; intro line
G1 X100.0 E12.5 F1000.0 ; intro line
G92 E0.0
M221 S95

; Don't change E values below. Excessive value can damage the printer.
M907 E430 ; set extruder motor current
G21 ; set units to millimeters
G90 ; use absolute coordinates
M83 ; use relative distances for extrusion
M900 K0.05 ; Filament gcode LA 1.5
M900 K30 ; Filament gcode LA 1.0
;LAYER_CHANGE
;Z:0.2
;HEIGHT:0.2
;BEFORE_LAYER_CHANGE
G92 E0.0
;0.2


G1 E-0.80000 F2100.000
G1 Z0.400 F10800.000
;AFTER_LAYER_CHANGE
;0.2
G1 X85.090 Y87.804
G1 Z0.200
G1 E0.80000 F2100.000
M204 S1000
;TYPE:Skirt
;WIDTH:0.42
G1 F1200.000
G1 X85.995 Y87.623 E0.02896
G1 X164.004 Y87.623 E2.44591
G1 X164.899 Y87.799 E0.02860
G1 X165.662 Y88.300 E0.02860
G1 X166.178 Y89.048 E0.02849
G1 X166.376 Y89.938 E0.02860
G1 X166.375 Y120.107 E0.94592
G1 X166.250 Y120.767 E0.02107
G1 X165.945 Y121.366 E0.02107
G1 X165.489 Y121.853 E0.02095
G1 X164.910 Y122.196 E0.02107
G1 X164.005 Y122.377 E0.02896
G1 X85.962 Y122.377 E2.44698
G1 X85.284 Y122.267 E0.02154
G1 X84.665 Y121.967 E0.02154
G1 X84.159 Y121.503 E0.02154
G1 X83.804 Y120.910 E0.02166
G1 X83.623 Y120.013 E0.02872
G1 X83.625 Y89.909 E0.94389
M73 P1 R29
M73 Q1 S29
G1 X83.746 Y89.244 E0.02119
G1 X84.050 Y88.640 E0.02119
G1 X84.511 Y88.147 E0.02119
G1 X85.038 Y87.835 E0.01919
; printing object Prusa-I3-MK3-S-plus-ScreenCover.stl id:0 copy 0
;WIPE_START
G1 F8640.000
G1 X85.995 Y87.623 E-0.22636
G1 X88.306 Y87.623 E-0.53364
;WIPE_END
G1 E-0.04000 F2100.000
G1 Z0.600 F10800.000
G1 X86.787 Y90.787
G1 Z0.200
G1 E0.80000 F2100.000
;TYPE:Perimeter
G1 F1200.000
G1 X163.213 Y90.787 E2.39628
G1 X163.213 Y119.213 E0.89127
G1 X86.787 Y119.213 E2.39628
G1 X86.787 Y90.847 E0.88939
G1 X86.410 Y90.410 F10800.000
;TYPE:External perimeter
G1 F1200.000
G1 X163.590 Y90.410 E2.41992
G1 X163.590 Y119.590 E0.91492
G1 X86.410 Y119.590 E2.41992
M73 P2 R29
M73 Q2 S29
G1 X86.410 Y90.470 E0.91304
G1 X86.807 Y90.458 F10800.000
;WIPE_START
G1 F8640.000
G1 X89.701 Y90.467 E-0.76000
;WIPE_END
G1 E-0.04000 F2100.000
G1 Z0.600 F10800.000
G1 X162.334 Y90.900
G1 Z0.200
G1 E0.80000 F2100.000
;TYPE:Solid infill
;WIDTH:0.421764
G1 F1200.000
G1 X162.930 Y91.497 E0.02657
G1 X162.930 Y92.032 E0.01688
G1 X161.968 Y91.070 E0.04287
G1 X161.432 Y91.070 E0.01688
G1 X162.930 Y92.568 E0.06674
G1 X162.930 Y93.104 E0.01688
G1 X160.896 Y91.070 E0.09061
G1 X160.360 Y91.070 E0.01688
G1 X162.930 Y93.640 E0.11448
G1 X162.930 Y94.175 E0.01688
G1 X159.825 Y91.070 E0.13835
G1 X159.289 Y91.070 E0.01688
G1 X162.930 Y94.711 E0.16221
G1 X162.930 Y95.247 E0.01688
G1 X158.753 Y91.070 E0.18608
G1 X158.217 Y91.070 E0.01688
G1 X162.930 Y95.783 E0.20995
G1 X162.930 Y96.318 E0.01688
G1 X157.682 Y91.070 E0.23382
G1 X157.146 Y91.070 E0.01688
G1 X162.930 Y96.854 E0.25769
G1 X162.930 Y97.390 E0.01688
G1 X156.610 Y91.070 E0.28155
G1 X156.074 Y91.070 E0.01688
G1 X162.930 Y97.926 E0.30542
G1 X162.930 Y98.461 E0.01688
G1 X155.539 Y91.070 E0.32929
G1 X155.003 Y91.070 E0.01688
G1 X162.930 Y98.997 E0.35316
G1 X162.930 Y99.533 E0.01688
G1 X154.467 Y91.070 E0.37703
G1 X153.931 Y91.070 E0.01688
G1 X162.930 Y100.069 E0.40089
G1 X162.930 Y100.605 E0.01688
G1 X153.395 Y91.070 E0.42476
G1 X152.860 Y91.070 E0.01688
G1 X162.930 Y101.140 E0.44863
G1 X162.930 Y101.676 E0.01688
G1 X152.324 Y91.070 E0.47250
G1 X151.788 Y91.070 E0.01688
G1 X162.930 Y102.212 E0.49637
G1 X162.930 Y102.748 E0.01688
G1 X151.252 Y91.070 E0.52023
G1 X150.717 Y91.070 E0.01688
G1 X162.930 Y103.283 E0.54410
G1 X162.930 Y103.819 E0.01688
G1 X150.181 Y91.070 E0.56797
M73 P3 R29
M73 Q3 S29
G1 X149.645 Y91.070 E0.01688
G1 X162.930 Y104.355 E0.59184
M73 P3 R28
G1 X162.930 Y104.891 E0.01688
G1 X149.109 Y91.070 E0.61570
G1 X148.574 Y91.070 E0.01688
G1 X162.930 Y105.426 E0.63957
G1 X162.930 Y105.962 E0.01688
G1 X148.038 Y91.070 E0.66344
G1 X147.502 Y91.070 E0.01688
G1 X162.930 Y106.498 E0.68731
M73 Q3 S28
G1 X162.930 Y107.034 E0.01688
G1 X146.966 Y91.070 E0.71118
G1 X146.430 Y91.070 E0.01688
G1 X162.930 Y107.570 E0.73504
G1 X162.930 Y108.105 E0.01688
G1 X145.895 Y91.070 E0.75891
G1 X145.359 Y91.070 E0.01688
G1 X162.930 Y108.641 E0.78278
G1 X162.930 Y109.177 E0.01688
G1 X144.823 Y91.070 E0.80665
G1 X144.287 Y91.070 E0.01688
G1 X162.930 Y109.713 E0.83052
G1 X162.930 Y110.248 E0.01688
G1 X143.752 Y91.070 E0.85438
G1 X143.216 Y91.070 E0.01688
G1 X162.930 Y110.784 E0.87825
G1 X162.930 Y111.320 E0.01688
G1 X142.680 Y91.070 E0.90212
M73 Q4 S28
G1 X142.144 Y91.070 E0.01688
G1 X162.930 Y111.856 E0.92599
M73 P4 R28
G1 X162.930 Y112.391 E0.01688
G1 X141.609 Y91.070 E0.94986
G1 X141.073 Y91.070 E0.01688
G1 X162.930 Y112.927 E0.97372
G1 X162.930 Y113.463 E0.01688
G1 X140.537 Y91.070 E0.99759
G1 X140.001 Y91.070 E0.01688
G1 X162.930 Y113.999 E1.02146
G1 X162.930 Y114.534 E0.01688
G1 X139.466 Y91.070 E1.04533
G1 X138.930 Y91.070 E0.01688
G1 X162.930 Y115.070 E1.06920
G1 X162.930 Y115.606 E0.01688
G1 X138.394 Y91.070 E1.09306
G1 X137.858 Y91.070 E0.01688
G1 X162.930 Y116.142 E1.11693
G1 X162.930 Y116.678 E0.01688
G1 X137.322 Y91.070 E1.14080
G1 X136.787 Y91.070 E0.01688
G1 X162.930 Y117.213 E1.16467
M73 P5 R28
M73 Q5 S28
G1 X162.930 Y117.749 E0.01688
G1 X136.251 Y91.070 E1.18854
G1 X135.715 Y91.070 E0.01688
G1 X162.930 Y118.285 E1.21240
G1 X162.930 Y118.821 E0.01688
G1 X135.179 Y91.070 E1.23627
G1 X134.644 Y91.070 E0.01688
G1 X162.504 Y118.930 E1.24115
G1 X161.968 Y118.930 E0.01688
G1 X134.108 Y91.070 E1.24115
G1 X133.572 Y91.070 E0.01688
G1 X161.432 Y118.930 E1.24115
G1 X160.897 Y118.930 E0.01688
G1 X133.036 Y91.070 E1.24115
G1 X132.501 Y91.070 E0.01688
G1 X160.361 Y118.930 E1.24115
G1 X159.825 Y118.930 E0.01688
G1 X131.965 Y91.070 E1.24115
M73 P6 R28
M73 Q6 S28
G1 X131.429 Y91.070 E0.01688
G1 X159.289 Y118.930 E1.24115
G1 X158.754 Y118.930 E0.01688
G1 X130.893 Y91.070 E1.24115
G1 X130.357 Y91.070 E0.01688
G1 X158.218 Y118.930 E1.24115
G1 X157.682 Y118.930 E0.01688
G1 X129.822 Y91.070 E1.24115
M73 P6 R27
G1 X129.286 Y91.070 E0.01688
G1 X157.146 Y118.930 E1.24115
G1 X156.610 Y118.930 E0.01688
G1 X128.750 Y91.070 E1.24115
M73 Q6 S27
G1 X128.214 Y91.070 E0.01688
G1 X156.075 Y118.930 E1.24115
G1 X155.539 Y118.930 E0.01688
G1 X127.679 Y91.070 E1.24115
G1 X127.143 Y91.070 E0.01688
G1 X155.003 Y118.930 E1.24115
M73 P7 R27
M73 Q7 S27
G1 X154.467 Y118.930 E0.01688
G1 X126.607 Y91.070 E1.24115
G1 X126.071 Y91.070 E0.01688
G1 X153.932 Y118.930 E1.24115
G1 X153.396 Y118.930 E0.01688
G1 X125.536 Y91.070 E1.24115
G1 X125.000 Y91.070 E0.01688
G1 X152.860 Y118.930 E1.24115
G1 X152.324 Y118.930 E0.01688
G1 X124.464 Y91.070 E1.24115
G1 X123.928 Y91.070 E0.01688
G1 X151.789 Y118.930 E1.24115
G1 X151.253 Y118.930 E0.01688
G1 X123.393 Y91.070 E1.24115
G1 X122.857 Y91.070 E0.01688
G1 X150.717 Y118.930 E1.24115
M73 Q8 S27
G1 X150.181 Y118.930 E0.01688
M73 P8 R27
G1 X122.321 Y91.070 E1.24115
G1 X121.785 Y91.070 E0.01688
G1 X149.645 Y118.930 E1.24115
G1 X149.110 Y118.930 E0.01688
G1 X121.249 Y91.070 E1.24115
G1 X120.714 Y91.070 E0.01688
G1 X148.574 Y118.930 E1.24115
G1 X148.038 Y118.930 E0.01688
G1 X120.178 Y91.070 E1.24115
G1 X119.642 Y91.070 E0.01688
G1 X147.502 Y118.930 E1.24115
G1 X146.967 Y118.930 E0.01688
G1 X119.106 Y91.070 E1.24115
G1 X118.571 Y91.070 E0.01688
G1 X146.431 Y118.930 E1.24115
G1 X145.895 Y118.930 E0.01688
G1 X118.035 Y91.070 E1.24115
M73 P9 R27
M73 Q9 S27
G1 X117.499 Y91.070 E0.01688
G1 X145.359 Y118.930 E1.24115
G1 X144.824 Y118.930 E0.01688
G1 X116.963 Y91.070 E1.24115
G1 X116.428 Y91.070 E0.01688
G1 X144.288 Y118.930 E1.24115
G1 X143.752 Y118.930 E0.01688
G1 X115.892 Y91.070 E1.24115
G1 X115.356 Y91.070 E0.01688
G1 X143.216 Y118.930 E1.24115
G1 X142.681 Y118.930 E0.01688
G1 X114.820 Y91.070 E1.24115
G1 X114.285 Y91.070 E0.01688
G1 X142.145 Y118.930 E1.24115
G1 X141.609 Y118.930 E0.01688
G1 X113.749 Y91.070 E1.24115
M73 P9 R26
G1 X113.213 Y91.070 E0.01688
G1 X141.073 Y118.930 E1.24115
M73 P10 R26
M73 Q10 S27
G1 X140.537 Y118.930 E0.01688
G1 X112.677 Y91.070 E1.24115
M73 Q10 S26
G1 X112.141 Y91.070 E0.01688
G1 X140.002 Y118.930 E1.24115
G1 X139.466 Y118.930 E0.01688
G1 X111.606 Y91.070 E1.24115
G1 X111.070 Y91.070 E0.01688
G1 X138.930 Y118.930 E1.24115
G1 X138.394 Y118.930 E0.01688
G1 X110.534 Y91.070 E1.24115
G1 X109.998 Y91.070 E0.01688
G1 X137.859 Y118.930 E1.24115
G1 X137.323 Y118.930 E0.01688
G1 X109.463 Y91.070 E1.24115
G1 X108.927 Y91.070 E0.01688
G1 X136.787 Y118.930 E1.24115
G1 X136.251 Y118.930 E0.01688
G1 X108.391 Y91.070 E1.24115
M73 P11 R26
M73 Q11 S26
G1 X107.855 Y91.070 E0.01688
G1 X135.716 Y118.930 E1.24115
G1 X135.180 Y118.930 E0.01688
G1 X107.320 Y91.070 E1.24115
G1 X106.784 Y91.070 E0.01688
G1 X134.644 Y118.930 E1.24115
G1 X134.108 Y118.930 E0.01688
G1 X106.248 Y91.070 E1.24115
G1 X105.712 Y91.070 E0.01688
G1 X133.572 Y118.930 E1.24115
G1 X133.037 Y118.930 E0.01688
G1 X105.176 Y91.070 E1.24115
G1 X104.641 Y91.070 E0.01688
G1 X132.501 Y118.930 E1.24115
G1 X131.965 Y118.930 E0.01688
G1 X104.105 Y91.070 E1.24115
G1 X103.569 Y91.070 E0.01688
G1 X131.429 Y118.930 E1.24115
M73 P12 R26
M73 Q12 S26
G1 X130.894 Y118.930 E0.01688
G1 X103.033 Y91.070 E1.24115
G1 X102.498 Y91.070 E0.01688
G1 X130.358 Y118.930 E1.24115
G1 X129.822 Y118.930 E0.01688
G1 X101.962 Y91.070 E1.24115
G1 X101.426 Y91.070 E0.01688
G1 X129.286 Y118.930 E1.24115
G1 X128.751 Y118.930 E0.01688
G1 X100.890 Y91.070 E1.24115
G1 X100.355 Y91.070 E0.01688
G1 X128.215 Y118.930 E1.24115
G1 X127.679 Y118.930 E0.01688
G1 X99.819 Y91.070 E1.24115
G1 X99.283 Y91.070 E0.01688
G1 X127.143 Y118.930 E1.24115
M73 P13 R26
M73 Q13 S26
G1 X126.608 Y118.930 E0.01688
G1 X98.747 Y91.070 E1.24115
G1 X98.212 Y91.070 E0.01688
G1 X126.072 Y118.930 E1.24115
G1 X125.536 Y118.930 E0.01688
G1 X97.676 Y91.070 E1.24115
M73 P13 R25
G1 X97.140 Y91.070 E0.01688
G1 X125.000 Y118.930 E1.24115
G1 X124.464 Y118.930 E0.01688
G1 X96.604 Y91.070 E1.24115
M73 Q13 S25
G1 X96.068 Y91.070 E0.01688
G1 X123.929 Y118.930 E1.24115
G1 X123.393 Y118.930 E0.01688
G1 X95.533 Y91.070 E1.24115
G1 X94.997 Y91.070 E0.01688
G1 X122.857 Y118.930 E1.24115
G1 X122.321 Y118.930 E0.01688
G1 X94.461 Y91.070 E1.24115
M73 P14 R25
M73 Q14 S25
G1 X93.925 Y91.070 E0.01688
G1 X121.786 Y118.930 E1.24115
G1 X121.250 Y118.930 E0.01688
G1 X93.390 Y91.070 E1.24115
G1 X92.854 Y91.070 E0.01688
G1 X120.714 Y118.930 E1.24115
G1 X120.178 Y118.930 E0.01688
G1 X92.318 Y91.070 E1.24115
G1 X91.782 Y91.070 E0.01688
G1 X119.643 Y118.930 E1.24115
G1 X119.107 Y118.930 E0.01688
G1 X91.247 Y91.070 E1.24115
G1 X90.711 Y91.070 E0.01688
G1 X118.571 Y118.930 E1.24115
G1 X118.035 Y118.930 E0.01688
G1 X90.175 Y91.070 E1.24115
G1 X89.639 Y91.070 E0.01688
G1 X117.500 Y118.930 E1.24115
M73 P15 R25
M73 Q15 S25
G1 X116.964 Y118.930 E0.01688
G1 X89.103 Y91.070 E1.24115
G1 X88.568 Y91.070 E0.01688
G1 X116.428 Y118.930 E1.24115
G1 X115.892 Y118.930 E0.01688
G1 X88.032 Y91.070 E1.24115
G1 X87.496 Y91.070 E0.01688
G1 X115.356 Y118.930 E1.24115
G1 X114.821 Y118.930 E0.01688
G1 X87.070 Y91.179 E1.23627
G1 X87.070 Y91.715 E0.01688
G1 X114.285 Y118.930 E1.21241
G1 X113.749 Y118.930 E0.01688
G1 X87.070 Y92.251 E1.18854
G1 X87.070 Y92.787 E0.01688
G1 X113.213 Y118.930 E1.16467
G1 X112.678 Y118.930 E0.01688
G1 X87.070 Y93.322 E1.14080
M73 P16 R25
M73 Q16 S25
G1 X87.070 Y93.858 E0.01688
G1 X112.142 Y118.930 E1.11693
G1 X111.606 Y118.930 E0.01688
G1 X87.070 Y94.394 E1.09307
G1 X87.070 Y94.930 E0.01688
G1 X111.070 Y118.930 E1.06920
G1 X110.535 Y118.930 E0.01688
G1 X87.070 Y95.465 E1.04533
G1 X87.070 Y96.001 E0.01688
G1 X109.999 Y118.930 E1.02146
G1 X109.463 Y118.930 E0.01688
G1 X87.070 Y96.537 E0.99760
M73 P16 R24
G1 X87.070 Y97.073 E0.01688
G1 X108.927 Y118.930 E0.97373
G1 X108.391 Y118.930 E0.01688
G1 X87.070 Y97.609 E0.94986
G1 X87.070 Y98.144 E0.01688
G1 X107.856 Y118.930 E0.92599
M73 Q16 S24
G1 X107.320 Y118.930 E0.01688
G1 X87.070 Y98.680 E0.90212
G1 X87.070 Y99.216 E0.01688
G1 X106.784 Y118.930 E0.87826
M73 P17 R24
M73 Q17 S24
G1 X106.248 Y118.930 E0.01688
G1 X87.070 Y99.752 E0.85439
G1 X87.070 Y100.287 E0.01688
G1 X105.713 Y118.930 E0.83052
G1 X105.177 Y118.930 E0.01688
G1 X87.070 Y100.823 E0.80665
G1 X87.070 Y101.359 E0.01688
G1 X104.641 Y118.930 E0.78278
G1 X104.105 Y118.930 E0.01688
G1 X87.070 Y101.895 E0.75892
G1 X87.070 Y102.430 E0.01688
G1 X103.570 Y118.930 E0.73505
G1 X103.034 Y118.930 E0.01688
G1 X87.070 Y102.966 E0.71118
G1 X87.070 Y103.502 E0.01688
G1 X102.498 Y118.930 E0.68731
G1 X101.962 Y118.930 E0.01688
G1 X87.070 Y104.038 E0.66344
G1 X87.070 Y104.573 E0.01688
G1 X101.427 Y118.930 E0.63958
G1 X100.891 Y118.930 E0.01688
G1 X87.070 Y105.109 E0.61571
G1 X87.070 Y105.645 E0.01688
G1 X100.355 Y118.930 E0.59184
G1 X99.819 Y118.930 E0.01688
G1 X87.070 Y106.181 E0.56797
G1 X87.070 Y106.717 E0.01688
G1 X99.283 Y118.930 E0.54410
G1 X98.748 Y118.930 E0.01688
G1 X87.070 Y107.252 E0.52024
M73 P18 R24
M73 Q18 S24
G1 X87.070 Y107.788 E0.01688
G1 X98.212 Y118.930 E0.49637
G1 X97.676 Y118.930 E0.01688
G1 X87.070 Y108.324 E0.47250
G1 X87.070 Y108.860 E0.01688
G1 X97.140 Y118.930 E0.44863
G1 X96.605 Y118.930 E0.01688
G1 X87.070 Y109.395 E0.42476
G1 X87.070 Y109.931 E0.01688
G1 X96.069 Y118.930 E0.40090
G1 X95.533 Y118.930 E0.01688
G1 X87.070 Y110.467 E0.37703
G1 X87.070 Y111.003 E0.01688
G1 X94.997 Y118.930 E0.35316
G1 X94.462 Y118.930 E0.01688
G1 X87.070 Y111.538 E0.32929
G1 X87.070 Y112.074 E0.01688
G1 X93.926 Y118.930 E0.30542
G1 X93.390 Y118.930 E0.01688
G1 X87.070 Y112.610 E0.28156
G1 X87.070 Y113.146 E0.01688
G1 X92.854 Y118.930 E0.25769
G1 X92.318 Y118.930 E0.01688
G1 X87.070 Y113.682 E0.23382
G1 X87.070 Y114.217 E0.01688
G1 X91.783 Y118.930 E0.20995
G1 X91.247 Y118.930 E0.01688
G1 X87.070 Y114.753 E0.18609
G1 X87.070 Y115.289 E0.01688
G1 X90.711 Y118.930 E0.16222
G1 X90.175 Y118.930 E0.01688
G1 X87.070 Y115.825 E0.13835
G1 X87.070 Y116.360 E0.01688
G1 X89.640 Y118.930 E0.11448
G1 X89.104 Y118.930 E0.01688
G1 X87.070 Y116.896 E0.09061
G1 X87.070 Y117.432 E0.01688
G1 X88.568 Y118.930 E0.06675
G1 X88.032 Y118.930 E0.01688
G1 X87.070 Y117.968 E0.04288
G1 X87.070 Y118.503 E0.01688
G1 X87.666 Y119.100 E0.02657
; stop printing object Prusa-I3-MK3-S-plus-ScreenCover.stl id:0 copy 0
M106 S84.15
;LAYER_CHANGE
;Z:0.4
;HEIGHT:0.2
;BEFORE_LAYER_CHANGE
G92 E0.0
;0.4


;WIPE_START
G1 F8640.000
G1 X87.070 Y118.503 E-0.19475
G1 X87.070 Y117.968 E-0.12371
G1 X88.032 Y118.930 E-0.31429
G1 X88.568 Y118.930 E-0.12371
G1 X88.557 Y118.919 E-0.00353
;WIPE_END
G1 E-0.04000 F2100.000
G1 Z0.600 F10800.000
;AFTER_LAYER_CHANGE
;0.4
G1 X83.804 Y120.910
G1 Z0.400
G1 E0.80000 F2100.000
;TYPE:Skirt
;WIDTH:0.42
G1 F3000.000
G1 X83.623 Y120.013 E0.02872
G1 X83.625 Y89.909 E0.94389
G1 X83.746 Y89.244 E0.02119
G1 X84.050 Y88.640 E0.02119
G1 X84.511 Y88.147 E0.02119
G1 X85.090 Y87.804 E0.02107
G1 X85.995 Y87.623 E0.02896
G1 X164.004 Y87.623 E2.44591
G1 X164.899 Y87.799 E0.02860
G1 X165.662 Y88.300 E0.02860
G1 X166.178 Y89.048 E0.02849
G1 X166.376 Y89.938 E0.02860
G1 X166.375 Y120.107 E0.94592
G1 X166.250 Y120.767 E0.02107
G1 X165.945 Y121.366 E0.02107
G1 X165.489 Y121.853 E0.02095
G1 X164.910 Y122.196 E0.02107
