; generated by PrusaSlicer 2.3.1 on 2021-07-25 at 21:57:02 UTC

; 

; external perimeters extrusion width = 0.45mm
; perimeters extrusion width = 0.45mm
; infill extrusion width = 0.45mm
; solid infill extrusion width = 0.45mm
; top infill extrusion width = 0.40mm
; first layer extrusion width = 0.42mm

M73 P0 R31
M73 Q0 S31
M201 X1000 Y1000 Z200 E5000 ; sets maximum accelerations, mm/sec^2
M203 X200 Y200 Z12 E120 ; sets maximum feedrates, mm/sec
M204 P1250 R1250 T1250 ; sets acceleration (P, T) and retract acceleration (R), mm/sec^2
M205 X8.00 Y8.00 Z0.40 E4.50 ; sets the jerk limits, mm/sec
M205 S0 T0 ; sets the minimum extruding and travel feed rate, mm/sec
M107
;TYPE:Custom
M862.3 P "MK3S" ; printer model check
M862.1 P0.4 ; nozzle diameter check
M115 U3.9.3 ; tell printer latest fw version
G90 ; use absolute coordinates
M83 ; extruder relative mode
M104 S215 ; set extruder temp
M140 S60 ; set bed temp
M190 S60 ; wait for bed temp
M109 S215 ; wait for extruder temp
G28 W ; home all without mesh bed level
G80 ; mesh bed leveling
G1 Y-3.0 F1000.0 ; go outside print area
G92 E0.0
G1 X60.0 E9.0 F1000.0 ; intro line
G1 X100.0 E12.5 F1000.0 ; intro line
G92 E0.0
M221 S95

; Don't change E values below. Excessive value can damage the printer.
M907 E430 ; set extruder motor current
G21 ; set units to millimeters
G90 ; use absolute coordinates
M83 ; use relative distances for extrusion
M900 K0.05 ; Filament gcode LA 1.5
M900 K30 ; Filament gcode LA 1.0
;LAYER_CHANGE
;Z:0.2
;HEIGHT:0.2
;BEFORE_LAYER_CHANGE
G92 E0.0
;0.2


G1 E-0.80000 F2100.000
G1 Z0.400 F10800.000
;AFTER_LAYER_CHANGE
;0.2
G1 X84.119 Y95.121
G1 Z0.200
G1 E0.80000 F2100.000
M204 S1000
;TYPE:Skirt
;WIDTH:0.42
G1 F1200.000
G1 X84.986 Y94.956 E0.02767
G1 X166.994 Y94.956 E2.57133
G1 X167.889 Y95.132 E0.02860
G1 X168.652 Y95.633 E0.02860
G1 X169.170 Y96.384 E0.02860
G1 X169.367 Y97.275 E0.02860
G1 X169.365 Y127.443 E0.94592
G1 X169.235 Y128.114 E0.02142
G1 X168.923 Y128.717 E0.02130
G1 X168.452 Y129.207 E0.02130
G1 X167.862 Y129.544 E0.02130
G1 X166.995 Y129.710 E0.02767
G1 X84.952 Y129.710 E2.57240
G1 X84.263 Y129.596 E0.02190
G1 X83.637 Y129.287 E0.02190
G1 X83.128 Y128.809 E0.02190
G1 X82.779 Y128.204 E0.02190
G1 X82.613 Y127.345 E0.02743
G1 X82.615 Y97.238 E0.94401
M73 P1 R31
M73 Q1 S31
G1 X82.740 Y96.566 E0.02142
G1 X83.054 Y95.954 E0.02154
G1 X83.526 Y95.460 E0.02142
G1 X84.067 Y95.151 E0.01954
; printing object Screen_Cover.stl id:0 copy 0
;WIPE_START
G1 F8640.000
G1 X84.986 Y94.956 E-0.21689
G1 X87.338 Y94.956 E-0.54311
;WIPE_END
G1 E-0.04000 F2100.000
G1 Z0.600 F10800.000
G1 X85.777 Y98.120
G1 Z0.200
G1 E0.80000 F2100.000
;TYPE:Perimeter
G1 F1200.000
G1 X166.203 Y98.120 E2.52170
G1 X166.203 Y126.546 E0.89127
G1 X85.777 Y126.546 E2.52170
G1 X85.777 Y98.180 E0.88939
M73 P1 R30
G1 X85.400 Y97.743 F10800.000
;TYPE:External perimeter
G1 F1200.000
G1 X166.580 Y97.743 E2.54534
G1 X166.580 Y126.923 E0.91492
M73 Q1 S30
G1 X85.400 Y126.923 E2.54534
M73 P2 R30
M73 Q2 S30
G1 X85.400 Y97.803 E0.91304
G1 X85.798 Y97.789 F10800.000
;WIPE_START
G1 F8640.000
G1 X88.692 Y97.800 E-0.76000
;WIPE_END
G1 E-0.04000 F2100.000
G1 Z0.600 F10800.000
G1 X166.090 Y98.997
G1 Z0.200
G1 E0.80000 F2100.000
;TYPE:Solid infill
;WIDTH:0.420768
G1 F1200.000
G1 X165.496 Y98.403 E0.02640
G1 X164.962 Y98.403 E0.01679
G1 X165.921 Y99.361 E0.04261
G1 X165.921 Y99.896 E0.01679
G1 X164.427 Y98.403 E0.06635
G1 X163.893 Y98.403 E0.01679
G1 X165.921 Y100.430 E0.09009
G1 X165.921 Y100.965 E0.01679
G1 X163.359 Y98.403 E0.11383
G1 X162.824 Y98.403 E0.01679
G1 X165.921 Y101.499 E0.13758
G1 X165.921 Y102.033 E0.01679
G1 X162.290 Y98.403 E0.16132
G1 X161.755 Y98.403 E0.01679
G1 X165.921 Y102.568 E0.18506
G1 X165.921 Y103.102 E0.01679
G1 X161.221 Y98.403 E0.20880
G1 X160.687 Y98.403 E0.01679
G1 X165.921 Y103.636 E0.23255
G1 X165.921 Y104.171 E0.01679
G1 X160.152 Y98.403 E0.25629
G1 X159.618 Y98.403 E0.01679
G1 X165.921 Y104.705 E0.28003
G1 X165.921 Y105.239 E0.01679
G1 X159.084 Y98.403 E0.30377
G1 X158.549 Y98.403 E0.01679
G1 X165.921 Y105.774 E0.32752
G1 X165.921 Y106.308 E0.01679
G1 X158.015 Y98.403 E0.35126
G1 X157.481 Y98.403 E0.01679
G1 X165.921 Y106.843 E0.37500
G1 X165.921 Y107.377 E0.01679
G1 X156.946 Y98.403 E0.39874
G1 X156.412 Y98.403 E0.01679
G1 X165.921 Y107.911 E0.42249
G1 X165.921 Y108.446 E0.01679
G1 X155.878 Y98.403 E0.44623
G1 X155.343 Y98.403 E0.01679
G1 X165.921 Y108.980 E0.46997
G1 X165.921 Y109.514 E0.01679
G1 X154.809 Y98.403 E0.49371
G1 X154.274 Y98.403 E0.01679
G1 X165.921 Y110.049 E0.51746
G1 X165.921 Y110.583 E0.01679
G1 X153.740 Y98.403 E0.54120
G1 X153.206 Y98.403 E0.01679
G1 X165.921 Y111.117 E0.56494
G1 X165.921 Y111.652 E0.01679
G1 X152.671 Y98.403 E0.58869
M73 Q3 S30
G1 X152.137 Y98.403 E0.01679
G1 X165.921 Y112.186 E0.61243
M73 P3 R30
G1 X165.921 Y112.720 E0.01679
G1 X151.603 Y98.403 E0.63617
G1 X151.068 Y98.403 E0.01679
G1 X165.921 Y113.255 E0.65991
G1 X165.921 Y113.789 E0.01679
G1 X150.534 Y98.403 E0.68366
G1 X150.000 Y98.403 E0.01679
G1 X165.921 Y114.324 E0.70740
G1 X165.921 Y114.858 E0.01679
G1 X149.465 Y98.403 E0.73114
G1 X148.931 Y98.403 E0.01679
G1 X165.921 Y115.392 E0.75488
G1 X165.921 Y115.927 E0.01679
G1 X148.397 Y98.403 E0.77863
G1 X147.862 Y98.403 E0.01679
G1 X165.921 Y116.461 E0.80237
G1 X165.921 Y116.995 E0.01679
G1 X147.328 Y98.403 E0.82611
G1 X146.793 Y98.403 E0.01679
G1 X165.921 Y117.530 E0.84985
G1 X165.921 Y118.064 E0.01679
G1 X146.259 Y98.403 E0.87360
G1 X145.725 Y98.403 E0.01679
G1 X165.921 Y118.598 E0.89734
G1 X165.921 Y119.133 E0.01679
G1 X145.190 Y98.403 E0.92108
G1 X144.656 Y98.403 E0.01679
G1 X165.921 Y119.667 E0.94482
M73 P4 R30
M73 Q4 S30
G1 X165.921 Y120.201 E0.01679
G1 X144.122 Y98.403 E0.96857
G1 X143.587 Y98.403 E0.01679
G1 X165.921 Y120.736 E0.99231
G1 X165.921 Y121.270 E0.01679
G1 X143.053 Y98.403 E1.01605
G1 X142.519 Y98.403 E0.01679
G1 X165.921 Y121.805 E1.03979
G1 X165.921 Y122.339 E0.01679
G1 X141.984 Y98.403 E1.06354
G1 X141.450 Y98.403 E0.01679
G1 X165.921 Y122.873 E1.08728
G1 X165.921 Y123.408 E0.01679
G1 X140.916 Y98.403 E1.11102
G1 X140.381 Y98.403 E0.01679
G1 X165.921 Y123.942 E1.13476
G1 X165.921 Y124.476 E0.01679
G1 X139.847 Y98.403 E1.15851
G1 X139.312 Y98.403 E0.01679
G1 X165.921 Y125.011 E1.18225
M73 P4 R29
G1 X165.921 Y125.545 E0.01679
G1 X138.778 Y98.403 E1.20599
M73 P5 R29
M73 Q5 S30
G1 X138.244 Y98.403 E0.01679
G1 X165.921 Y126.079 E1.22974
M73 Q5 S29
G1 X165.921 Y126.263 E0.00576
G1 X165.570 Y126.263 E0.01102
G1 X137.709 Y98.403 E1.23789
G1 X137.175 Y98.403 E0.01679
G1 X165.035 Y126.263 E1.23789
G1 X164.501 Y126.263 E0.01679
G1 X136.641 Y98.403 E1.23789
G1 X136.106 Y98.403 E0.01679
G1 X163.967 Y126.263 E1.23789
G1 X163.432 Y126.263 E0.01679
G1 X135.572 Y98.403 E1.23789
G1 X135.038 Y98.403 E0.01679
G1 X162.898 Y126.263 E1.23789
G1 X162.363 Y126.263 E0.01679
G1 X134.503 Y98.403 E1.23789
G1 X133.969 Y98.403 E0.01679
G1 X161.829 Y126.263 E1.23789
M73 P6 R29
M73 Q6 S29
G1 X161.295 Y126.263 E0.01679
G1 X133.435 Y98.403 E1.23789
G1 X132.900 Y98.403 E0.01679
G1 X160.760 Y126.263 E1.23789
G1 X160.226 Y126.263 E0.01679
G1 X132.366 Y98.403 E1.23789
G1 X131.831 Y98.403 E0.01679
G1 X159.692 Y126.263 E1.23789
G1 X159.157 Y126.263 E0.01679
G1 X131.297 Y98.403 E1.23789
G1 X130.763 Y98.403 E0.01679
G1 X158.623 Y126.263 E1.23789
G1 X158.089 Y126.263 E0.01679
G1 X130.228 Y98.403 E1.23789
G1 X129.694 Y98.403 E0.01679
G1 X157.554 Y126.263 E1.23789
G1 X157.020 Y126.263 E0.01679
G1 X129.160 Y98.403 E1.23789
M73 Q7 S29
G1 X128.625 Y98.403 E0.01679
G1 X156.486 Y126.263 E1.23789
M73 P7 R29
G1 X155.951 Y126.263 E0.01679
G1 X128.091 Y98.403 E1.23789
G1 X127.557 Y98.403 E0.01679
G1 X155.417 Y126.263 E1.23789
G1 X154.882 Y126.263 E0.01679
G1 X127.022 Y98.403 E1.23789
G1 X126.488 Y98.403 E0.01679
G1 X154.348 Y126.263 E1.23789
G1 X153.814 Y126.263 E0.01679
G1 X125.954 Y98.403 E1.23789
G1 X125.419 Y98.403 E0.01679
G1 X153.279 Y126.263 E1.23789
G1 X152.745 Y126.263 E0.01679
G1 X124.885 Y98.403 E1.23789
G1 X124.350 Y98.403 E0.01679
G1 X152.211 Y126.263 E1.23789
G1 X151.676 Y126.263 E0.01679
G1 X123.816 Y98.403 E1.23789
M73 P8 R28
M73 Q8 S29
G1 X123.282 Y98.403 E0.01679
G1 X151.142 Y126.263 E1.23789
G1 X150.608 Y126.263 E0.01679
G1 X122.747 Y98.403 E1.23789
G1 X122.213 Y98.403 E0.01679
G1 X150.073 Y126.263 E1.23789
M73 Q8 S28
G1 X149.539 Y126.263 E0.01679
G1 X121.679 Y98.403 E1.23789
G1 X121.144 Y98.403 E0.01679
G1 X149.005 Y126.263 E1.23789
G1 X148.470 Y126.263 E0.01679
G1 X120.610 Y98.403 E1.23789
G1 X120.076 Y98.403 E0.01679
G1 X147.936 Y126.263 E1.23789
G1 X147.401 Y126.263 E0.01679
G1 X119.541 Y98.403 E1.23789
G1 X119.007 Y98.403 E0.01679
G1 X146.867 Y126.263 E1.23789
M73 P9 R28
M73 Q9 S28
G1 X146.333 Y126.263 E0.01679
G1 X118.473 Y98.403 E1.23789
G1 X117.938 Y98.403 E0.01679
G1 X145.798 Y126.263 E1.23789
G1 X145.264 Y126.263 E0.01679
G1 X117.404 Y98.403 E1.23789
G1 X116.869 Y98.403 E0.01679
G1 X144.730 Y126.263 E1.23789
G1 X144.195 Y126.263 E0.01679
G1 X116.335 Y98.403 E1.23789
G1 X115.801 Y98.403 E0.01679
G1 X143.661 Y126.263 E1.23789
G1 X143.127 Y126.263 E0.01679
G1 X115.266 Y98.403 E1.23789
G1 X114.732 Y98.403 E0.01679
G1 X142.592 Y126.263 E1.23789
G1 X142.058 Y126.263 E0.01679
G1 X114.198 Y98.403 E1.23789
M73 P10 R28
M73 Q10 S28
G1 X113.663 Y98.403 E0.01679
G1 X141.524 Y126.263 E1.23789
G1 X140.989 Y126.263 E0.01679
G1 X113.129 Y98.403 E1.23789
G1 X112.595 Y98.403 E0.01679
G1 X140.455 Y126.263 E1.23789
G1 X139.920 Y126.263 E0.01679
G1 X112.060 Y98.403 E1.23789
G1 X111.526 Y98.403 E0.01679
G1 X139.386 Y126.263 E1.23789
G1 X138.852 Y126.263 E0.01679
G1 X110.992 Y98.403 E1.23789
G1 X110.457 Y98.403 E0.01679
G1 X138.317 Y126.263 E1.23789
G1 X137.783 Y126.263 E0.01679
G1 X109.923 Y98.403 E1.23789
G1 X109.388 Y98.403 E0.01679
G1 X137.249 Y126.263 E1.23789
G1 X136.714 Y126.263 E0.01679
G1 X108.854 Y98.403 E1.23789
M73 P11 R28
M73 Q11 S28
G1 X108.320 Y98.403 E0.01679
G1 X136.180 Y126.263 E1.23789
G1 X135.646 Y126.263 E0.01679
G1 X107.785 Y98.403 E1.23789
M73 P11 R27
G1 X107.251 Y98.403 E0.01679
G1 X135.111 Y126.263 E1.23789
G1 X134.577 Y126.263 E0.01679
G1 X106.717 Y98.403 E1.23789
G1 X106.182 Y98.403 E0.01679
G1 X134.043 Y126.263 E1.23789
M73 Q11 S27
G1 X133.508 Y126.263 E0.01679
G1 X105.648 Y98.403 E1.23789
G1 X105.114 Y98.403 E0.01679
G1 X132.974 Y126.263 E1.23789
G1 X132.439 Y126.263 E0.01679
G1 X104.579 Y98.403 E1.23789
G1 X104.045 Y98.403 E0.01679
G1 X131.905 Y126.263 E1.23789
M73 P12 R27
M73 Q12 S27
G1 X131.371 Y126.263 E0.01679
G1 X103.510 Y98.403 E1.23789
G1 X102.976 Y98.403 E0.01679
G1 X130.836 Y126.263 E1.23789
G1 X130.302 Y126.263 E0.01679
G1 X102.442 Y98.403 E1.23789
G1 X101.907 Y98.403 E0.01679
G1 X129.768 Y126.263 E1.23789
G1 X129.233 Y126.263 E0.01679
G1 X101.373 Y98.403 E1.23789
G1 X100.839 Y98.403 E0.01679
G1 X128.699 Y126.263 E1.23789
G1 X128.165 Y126.263 E0.01679
G1 X100.304 Y98.403 E1.23789
G1 X99.770 Y98.403 E0.01679
G1 X127.630 Y126.263 E1.23789
G1 X127.096 Y126.263 E0.01679
G1 X99.236 Y98.403 E1.23789
M73 P13 R27
M73 Q13 S27
G1 X98.701 Y98.403 E0.01679
G1 X126.562 Y126.263 E1.23789
G1 X126.027 Y126.263 E0.01679
G1 X98.167 Y98.403 E1.23789
G1 X97.633 Y98.403 E0.01679
G1 X125.493 Y126.263 E1.23789
G1 X124.958 Y126.263 E0.01679
G1 X97.098 Y98.403 E1.23789
G1 X96.564 Y98.403 E0.01679
G1 X124.424 Y126.263 E1.23789
G1 X123.890 Y126.263 E0.01679
G1 X96.029 Y98.403 E1.23789
G1 X95.495 Y98.403 E0.01679
G1 X123.355 Y126.263 E1.23789
G1 X122.821 Y126.263 E0.01679
G1 X94.961 Y98.403 E1.23789
G1 X94.426 Y98.403 E0.01679
G1 X122.287 Y126.263 E1.23789
M73 P14 R27
M73 Q14 S27
G1 X121.752 Y126.263 E0.01679
G1 X93.892 Y98.403 E1.23789
G1 X93.358 Y98.403 E0.01679
G1 X121.218 Y126.263 E1.23789
G1 X120.684 Y126.263 E0.01679
G1 X92.823 Y98.403 E1.23789
G1 X92.289 Y98.403 E0.01679
G1 X120.149 Y126.263 E1.23789
G1 X119.615 Y126.263 E0.01679
G1 X91.755 Y98.403 E1.23789
M73 P14 R26
G1 X91.220 Y98.403 E0.01679
G1 X119.081 Y126.263 E1.23789
G1 X118.546 Y126.263 E0.01679
G1 X90.686 Y98.403 E1.23789
G1 X90.152 Y98.403 E0.01679
G1 X118.012 Y126.263 E1.23789
M73 Q14 S26
G1 X117.477 Y126.263 E0.01679
G1 X89.617 Y98.403 E1.23789
G1 X89.083 Y98.403 E0.01679
G1 X116.943 Y126.263 E1.23789
M73 P15 R26
M73 Q15 S26
G1 X116.409 Y126.263 E0.01679
G1 X88.548 Y98.403 E1.23789
G1 X88.014 Y98.403 E0.01679
G1 X115.874 Y126.263 E1.23789
G1 X115.340 Y126.263 E0.01679
G1 X87.480 Y98.403 E1.23789
G1 X86.945 Y98.403 E0.01679
G1 X114.806 Y126.263 E1.23789
G1 X114.271 Y126.263 E0.01679
G1 X86.411 Y98.403 E1.23789
G1 X86.060 Y98.403 E0.01102
G1 X86.060 Y98.586 E0.00577
G1 X113.737 Y126.263 E1.22973
G1 X113.203 Y126.263 E0.01679
G1 X86.060 Y99.121 E1.20599
G1 X86.060 Y99.655 E0.01679
G1 X112.668 Y126.263 E1.18224
G1 X112.134 Y126.263 E0.01679
G1 X86.060 Y100.189 E1.15850
M73 P16 R26
M73 Q16 S26
G1 X86.060 Y100.724 E0.01679
G1 X111.600 Y126.263 E1.13476
G1 X111.065 Y126.263 E0.01679
G1 X86.060 Y101.258 E1.11102
G1 X86.060 Y101.792 E0.01679
G1 X110.531 Y126.263 E1.08727
G1 X109.996 Y126.263 E0.01679
G1 X86.060 Y102.327 E1.06353
G1 X86.060 Y102.861 E0.01679
G1 X109.462 Y126.263 E1.03979
G1 X108.928 Y126.263 E0.01679
G1 X86.060 Y103.395 E1.01605
G1 X86.060 Y103.930 E0.01679
G1 X108.393 Y126.263 E0.99230
G1 X107.859 Y126.263 E0.01679
G1 X86.060 Y104.464 E0.96856
G1 X86.060 Y104.998 E0.01679
G1 X107.325 Y126.263 E0.94482
G1 X106.790 Y126.263 E0.01679
G1 X86.060 Y105.533 E0.92108
G1 X86.060 Y106.067 E0.01679
G1 X106.256 Y126.263 E0.89733
M73 P17 R26
M73 Q17 S26
G1 X105.722 Y126.263 E0.01679
G1 X86.060 Y106.602 E0.87359
G1 X86.060 Y107.136 E0.01679
G1 X105.187 Y126.263 E0.84985
G1 X104.653 Y126.263 E0.01679
G1 X86.060 Y107.670 E0.82611
G1 X86.060 Y108.205 E0.01679
G1 X104.118 Y126.263 E0.80236
G1 X103.584 Y126.263 E0.01679
G1 X86.060 Y108.739 E0.77862
G1 X86.060 Y109.273 E0.01679
G1 X103.050 Y126.263 E0.75488
G1 X102.515 Y126.263 E0.01679
G1 X86.060 Y109.808 E0.73114
G1 X86.060 Y110.342 E0.01679
G1 X101.981 Y126.263 E0.70739
G1 X101.447 Y126.263 E0.01679
G1 X86.060 Y110.876 E0.68365
G1 X86.060 Y111.411 E0.01679
G1 X100.912 Y126.263 E0.65991
G1 X100.378 Y126.263 E0.01679
G1 X86.060 Y111.945 E0.63616
M73 P17 R25
G1 X86.060 Y112.480 E0.01679
G1 X99.844 Y126.263 E0.61242
G1 X99.309 Y126.263 E0.01679
G1 X86.060 Y113.014 E0.58868
G1 X86.060 Y113.548 E0.01679
G1 X98.775 Y126.263 E0.56494
G1 X98.241 Y126.263 E0.01679
G1 X86.060 Y114.083 E0.54119
G1 X86.060 Y114.617 E0.01679
G1 X97.706 Y126.263 E0.51745
M73 P18 R25
M73 Q17 S25
G1 X97.172 Y126.263 E0.01679
G1 X86.060 Y115.151 E0.49371
M73 Q18 S25
G1 X86.060 Y115.686 E0.01679
G1 X96.637 Y126.263 E0.46997
G1 X96.103 Y126.263 E0.01679
G1 X86.060 Y116.220 E0.44622
G1 X86.060 Y116.754 E0.01679
G1 X95.569 Y126.263 E0.42248
G1 X95.034 Y126.263 E0.01679
G1 X86.060 Y117.289 E0.39874
G1 X86.060 Y117.823 E0.01679
G1 X94.500 Y126.263 E0.37500
G1 X93.966 Y126.263 E0.01679
G1 X86.060 Y118.357 E0.35125
G1 X86.060 Y118.892 E0.01679
G1 X93.431 Y126.263 E0.32751
G1 X92.897 Y126.263 E0.01679
G1 X86.060 Y119.426 E0.30377
G1 X86.060 Y119.961 E0.01679
G1 X92.363 Y126.263 E0.28003
G1 X91.828 Y126.263 E0.01679
G1 X86.060 Y120.495 E0.25628
G1 X86.060 Y121.029 E0.01679
G1 X91.294 Y126.263 E0.23254
G1 X90.760 Y126.263 E0.01679
G1 X86.060 Y121.564 E0.20880
G1 X86.060 Y122.098 E0.01679
G1 X90.225 Y126.263 E0.18506
G1 X89.691 Y126.263 E0.01679
G1 X86.060 Y122.632 E0.16131
G1 X86.060 Y123.167 E0.01679
G1 X89.156 Y126.263 E0.13757
G1 X88.622 Y126.263 E0.01679
G1 X86.060 Y123.701 E0.11383
G1 X86.060 Y124.235 E0.01679
G1 X88.088 Y126.263 E0.09009
G1 X87.553 Y126.263 E0.01679
G1 X86.060 Y124.770 E0.06634
G1 X86.060 Y125.304 E0.01679
G1 X87.019 Y126.263 E0.04260
G1 X86.485 Y126.263 E0.01679
G1 X85.891 Y125.669 E0.02640
; stop printing object Screen_Cover.stl id:0 copy 0
M106 S84.15
;LAYER_CHANGE
;Z:0.4
;HEIGHT:0.2
;BEFORE_LAYER_CHANGE
G92 E0.0
;0.4


;WIPE_START
G1 F8640.000
G1 X86.485 Y126.263 E-0.19400
G1 X87.019 Y126.263 E-0.12338
G1 X86.060 Y125.304 E-0.31308
G1 X86.060 Y124.770 E-0.12338
G1 X86.079 Y124.789 E-0.00615
;WIPE_END
G1 E-0.04000 F2100.000
G1 Z0.600 F10800.000
;AFTER_LAYER_CHANGE
;0.4
G1 X82.779 Y128.204
G1 Z0.400
G1 E0.80000 F2100.000
