; generated by PrusaSlicer 2.3.1 on 2021-07-12 at 04:44:00 UTC

; 

; external perimeters extrusion width = 0.45mm
; perimeters extrusion width = 0.45mm
; infill extrusion width = 0.45mm
; solid infill extrusion width = 0.45mm
; top infill extrusion width = 0.40mm
; first layer extrusion width = 0.42mm

M73 P0 R28
M73 Q0 S28
M201 X1000 Y1000 Z200 E5000 ; sets maximum accelerations, mm/sec^2
M203 X200 Y200 Z12 E120 ; sets maximum feedrates, mm/sec
M204 P1250 R1250 T1250 ; sets acceleration (P, T) and retract acceleration (R), mm/sec^2
M205 X8.00 Y8.00 Z0.40 E4.50 ; sets the jerk limits, mm/sec
M205 S0 T0 ; sets the minimum extruding and travel feed rate, mm/sec
M107
;TYPE:Custom
M862.3 P "MK3S" ; printer model check
M862.1 P0.4 ; nozzle diameter check
M115 U3.9.3 ; tell printer latest fw version
G90 ; use absolute coordinates
M83 ; extruder relative mode
M104 S215 ; set extruder temp
M140 S60 ; set bed temp
M190 S60 ; wait for bed temp
M109 S215 ; wait for extruder temp
G28 W ; home all without mesh bed level
G80 ; mesh bed leveling
G1 Y-3.0 F1000.0 ; go outside print area
G92 E0.0
G1 X60.0 E9.0 F1000.0 ; intro line
G1 X100.0 E12.5 F1000.0 ; intro line
G92 E0.0
M221 S95

; Don't change E values below. Excessive value can damage the printer.
M907 E430 ; set extruder motor current
G21 ; set units to millimeters
G90 ; use absolute coordinates
M83 ; use relative distances for extrusion
M900 K0.05 ; Filament gcode LA 1.5
M900 K30 ; Filament gcode LA 1.0
;LAYER_CHANGE
;Z:0.2
;HEIGHT:0.2
;BEFORE_LAYER_CHANGE
G92 E0.0
;0.2


G1 E-0.80000 F2100.000
G1 Z0.400 F10800.000
;AFTER_LAYER_CHANGE
;0.2
G1 X102.772 Y81.672
G1 Z0.200
G1 E0.80000 F2100.000
M204 S1000
;TYPE:Skirt
;WIDTH:0.42
G1 F1200.000
G1 X103.185 Y80.965 E0.02567
G1 X103.547 Y80.618 E0.01574
G1 X103.978 Y80.354 E0.01585
G1 X104.455 Y80.186 E0.01585
G1 X104.953 Y80.123 E0.01574
G1 X145.004 Y80.123 E1.25576
G1 X145.892 Y80.297 E0.02837
G1 X146.651 Y80.789 E0.02837
G1 X147.170 Y81.530 E0.02837
G1 X147.375 Y82.411 E0.02837
G1 X147.377 Y127.527 E1.41456
G1 X147.228 Y128.328 E0.02555
G1 X146.815 Y129.035 E0.02567
G1 X146.444 Y129.389 E0.01609
G1 X146.008 Y129.653 E0.01597
G1 X145.526 Y129.818 E0.01597
G1 X145.016 Y129.877 E0.01609
G1 X104.970 Y129.877 E1.25564
G1 X104.169 Y129.727 E0.02555
G1 X103.465 Y129.315 E0.02555
G1 X103.111 Y128.944 E0.01609
G1 X102.846 Y128.505 E0.01609
G1 X102.681 Y128.022 E0.01597
G1 X102.623 Y127.513 E0.01609
G1 X102.623 Y82.473 E1.41217
G1 X102.761 Y81.731 E0.02367
; printing object BagHook.stl id:0 copy 0
;WIPE_START
G1 F8640.000
G1 X103.185 Y80.965 E-0.20212
G1 X103.547 Y80.618 E-0.11588
G1 X103.978 Y80.354 E-0.11675
G1 X104.455 Y80.186 E-0.11675
G1 X104.953 Y80.123 E-0.11588
G1 X105.354 Y80.123 E-0.09262
;WIPE_END
G1 E-0.04000 F2100.000
G1 Z0.600 F10800.000
G1 X105.787 Y83.287
G1 Z0.200
G1 E0.80000 F2100.000
;TYPE:Perimeter
M73 Q1 S28
G1 F1200.000
G1 X144.213 Y83.287 E1.20482
M73 P1 R28
G1 X144.213 Y91.713 E0.26419
G1 X142.787 Y91.713 E0.04471
G1 X142.787 Y84.713 E0.21948
G1 X107.213 Y84.713 E1.11540
G1 X107.213 Y106.287 E0.67644
G1 X144.213 Y106.287 E1.16011
G1 X144.213 Y126.713 E0.64044
G1 X105.787 Y126.713 E1.20482
G1 X105.787 Y125.287 E0.04471
G1 X142.787 Y125.287 E1.16011
G1 X142.787 Y107.713 E0.55103
G1 X105.787 Y107.713 E1.16011
G1 X105.787 Y83.347 E0.76397
;WIPE_START
G1 F8640.000
G1 X109.079 Y83.342 E-0.76000
;WIPE_END
G1 E-0.04000 F2100.000
G1 Z0.600 F10800.000
G1 X142.410 Y85.090
M73 Q2 S28
G1 Z0.200
G1 E0.80000 F2100.000
;TYPE:External perimeter
G1 F1200.000
G1 X107.590 Y85.090 E1.09176
M73 P2 R28
G1 X107.590 Y105.910 E0.65280
G1 X144.590 Y105.910 E1.16011
G1 X144.590 Y127.090 E0.66408
G1 X105.410 Y127.090 E1.22846
M73 P2 R27
G1 X105.410 Y124.910 E0.06835
G1 X142.410 Y124.910 E1.16011
G1 X142.410 Y108.090 E0.52738
G1 X105.410 Y108.090 E1.16011
G1 X105.410 Y82.910 E0.78950
G1 X144.590 Y82.910 E1.22846
G1 X144.590 Y92.090 E0.28783
G1 X142.410 Y92.090 E0.06835
G1 X142.410 Y85.150 E0.21760
G1 X142.370 Y84.692 F10800.000
;WIPE_START
M73 Q2 S27
G1 F8640.000
G1 X139.119 Y85.144 E-0.76000
;WIPE_END
G1 E-0.04000 F2100.000
G1 Z0.600 F10800.000
G1 X144.100 Y84.167
M73 Q3 S27
G1 Z0.200
G1 E0.80000 F2100.000
;TYPE:Solid infill
;WIDTH:0.421941
G1 F1200.000
G1 X143.503 Y83.570 E0.02660
M73 P3 R27
G1 X142.967 Y83.570 E0.01689
G1 X143.930 Y84.533 E0.04292
G1 X143.930 Y85.069 E0.01689
G1 X142.431 Y83.570 E0.06681
G1 X141.895 Y83.570 E0.01689
G1 X143.930 Y85.605 E0.09070
G1 X143.930 Y86.141 E0.01689
G1 X143.070 Y85.281 E0.03834
G1 X143.070 Y85.817 E0.01689
G1 X143.930 Y86.677 E0.03834
G1 X143.930 Y87.213 E0.01689
G1 X143.070 Y86.353 E0.03834
G1 X143.070 Y86.889 E0.01689
G1 X143.930 Y87.749 E0.03834
G1 X143.930 Y88.285 E0.01689
G1 X143.070 Y87.425 E0.03834
G1 X143.070 Y87.961 E0.01689
G1 X143.930 Y88.821 E0.03834
G1 X143.930 Y89.357 E0.01689
G1 X143.070 Y88.497 E0.03834
G1 X143.070 Y89.033 E0.01689
G1 X143.930 Y89.893 E0.03834
G1 X143.930 Y90.429 E0.01689
G1 X143.070 Y89.569 E0.03834
G1 X143.070 Y90.105 E0.01689
G1 X143.930 Y90.965 E0.03834
G1 X143.930 Y91.430 E0.01466
G1 X143.859 Y91.430 E0.00224
G1 X143.070 Y90.641 E0.03518
G1 X143.070 Y91.177 E0.01689
G1 X143.493 Y91.600 E0.01885
;WIPE_START
G1 F8640.000
G1 X143.070 Y91.177 E-0.13810
G1 X143.070 Y90.641 E-0.12377
G1 X143.859 Y91.430 E-0.25772
G1 X143.930 Y91.430 E-0.01640
G1 X143.930 Y90.965 E-0.10737
G1 X143.573 Y90.608 E-0.11664
;WIPE_END
G1 E-0.04000 F2100.000
G1 Z0.600 F10800.000
G1 X142.389 Y84.600
G1 Z0.200
G1 E0.80000 F2100.000
G1 F1200.000
G1 X141.359 Y83.570 E0.04590
G1 X140.823 Y83.570 E0.01689
G1 X141.683 Y84.430 E0.03834
G1 X141.147 Y84.430 E0.01689
G1 X140.287 Y83.570 E0.03834
G1 X139.751 Y83.570 E0.01689
G1 X140.611 Y84.430 E0.03834
G1 X140.075 Y84.430 E0.01689
G1 X139.215 Y83.570 E0.03834
G1 X138.679 Y83.570 E0.01689
G1 X139.539 Y84.430 E0.03834
G1 X139.003 Y84.430 E0.01689
G1 X138.143 Y83.570 E0.03834
G1 X137.607 Y83.570 E0.01689
G1 X138.467 Y84.430 E0.03834
G1 X137.931 Y84.430 E0.01689
G1 X137.071 Y83.570 E0.03834
G1 X136.535 Y83.570 E0.01689
G1 X137.395 Y84.430 E0.03834
G1 X136.859 Y84.430 E0.01689
G1 X135.999 Y83.570 E0.03834
G1 X135.463 Y83.570 E0.01689
G1 X136.323 Y84.430 E0.03834
G1 X135.787 Y84.430 E0.01689
G1 X134.927 Y83.570 E0.03834
G1 X134.391 Y83.570 E0.01689
G1 X135.251 Y84.430 E0.03834
G1 X134.715 Y84.430 E0.01689
G1 X133.855 Y83.570 E0.03834
G1 X133.319 Y83.570 E0.01689
G1 X134.179 Y84.430 E0.03834
G1 X133.643 Y84.430 E0.01689
G1 X132.783 Y83.570 E0.03834
G1 X132.247 Y83.570 E0.01689
G1 X133.107 Y84.430 E0.03834
G1 X132.571 Y84.430 E0.01689
G1 X131.711 Y83.570 E0.03834
G1 X131.175 Y83.570 E0.01689
G1 X132.035 Y84.430 E0.03834
G1 X131.499 Y84.430 E0.01689
G1 X130.639 Y83.570 E0.03834
G1 X130.103 Y83.570 E0.01689
G1 X130.963 Y84.430 E0.03834
G1 X130.427 Y84.430 E0.01689
G1 X129.567 Y83.570 E0.03834
G1 X129.031 Y83.570 E0.01689
G1 X129.891 Y84.430 E0.03834
G1 X129.355 Y84.430 E0.01689
G1 X128.495 Y83.570 E0.03834
G1 X127.959 Y83.570 E0.01689
G1 X128.819 Y84.430 E0.03834
G1 X128.283 Y84.430 E0.01689
G1 X127.423 Y83.570 E0.03834
G1 X126.887 Y83.570 E0.01689
G1 X127.747 Y84.430 E0.03834
G1 X127.211 Y84.430 E0.01689
G1 X126.351 Y83.570 E0.03834
G1 X125.815 Y83.570 E0.01689
G1 X126.675 Y84.430 E0.03834
G1 X126.139 Y84.430 E0.01689
G1 X125.279 Y83.570 E0.03834
G1 X124.743 Y83.570 E0.01689
G1 X125.603 Y84.430 E0.03834
G1 X125.067 Y84.430 E0.01689
G1 X124.207 Y83.570 E0.03834
G1 X123.670 Y83.570 E0.01689
G1 X124.531 Y84.430 E0.03834
G1 X123.995 Y84.430 E0.01689
G1 X123.134 Y83.570 E0.03834
G1 X122.598 Y83.570 E0.01689
G1 X123.459 Y84.430 E0.03834
G1 X122.923 Y84.430 E0.01689
G1 X122.062 Y83.570 E0.03834
G1 X121.526 Y83.570 E0.01689
G1 X122.387 Y84.430 E0.03834
G1 X121.851 Y84.430 E0.01689
G1 X120.990 Y83.570 E0.03834
G1 X120.454 Y83.570 E0.01689
G1 X121.315 Y84.430 E0.03834
G1 X120.779 Y84.430 E0.01689
G1 X119.918 Y83.570 E0.03834
G1 X119.382 Y83.570 E0.01689
G1 X120.243 Y84.430 E0.03834
G1 X119.707 Y84.430 E0.01689
G1 X118.846 Y83.570 E0.03834
G1 X118.310 Y83.570 E0.01689
G1 X119.171 Y84.430 E0.03834
G1 X118.635 Y84.430 E0.01689
G1 X117.774 Y83.570 E0.03834
G1 X117.238 Y83.570 E0.01689
G1 X118.099 Y84.430 E0.03834
G1 X117.563 Y84.430 E0.01689
G1 X116.702 Y83.570 E0.03834
G1 X116.166 Y83.570 E0.01689
G1 X117.026 Y84.430 E0.03834
G1 X116.490 Y84.430 E0.01689
G1 X115.630 Y83.570 E0.03834
G1 X115.094 Y83.570 E0.01689
G1 X115.954 Y84.430 E0.03834
G1 X115.418 Y84.430 E0.01689
G1 X114.558 Y83.570 E0.03834
G1 X114.022 Y83.570 E0.01689
G1 X114.882 Y84.430 E0.03834
G1 X114.346 Y84.430 E0.01689
G1 X113.486 Y83.570 E0.03834
G1 X112.950 Y83.570 E0.01689
G1 X113.810 Y84.430 E0.03834
G1 X113.274 Y84.430 E0.01689
G1 X112.414 Y83.570 E0.03834
G1 X111.878 Y83.570 E0.01689
G1 X112.738 Y84.430 E0.03834
G1 X112.202 Y84.430 E0.01689
G1 X111.342 Y83.570 E0.03834
G1 X110.806 Y83.570 E0.01689
G1 X111.666 Y84.430 E0.03834
G1 X111.130 Y84.430 E0.01689
G1 X110.270 Y83.570 E0.03834
G1 X109.734 Y83.570 E0.01689
G1 X110.594 Y84.430 E0.03834
G1 X110.058 Y84.430 E0.01689
G1 X109.198 Y83.570 E0.03834
G1 X108.662 Y83.570 E0.01689
G1 X109.522 Y84.430 E0.03834
G1 X108.986 Y84.430 E0.01689
G1 X108.126 Y83.570 E0.03834
G1 X107.590 Y83.570 E0.01689
G1 X108.450 Y84.430 E0.03834
G1 X107.914 Y84.430 E0.01689
G1 X107.054 Y83.570 E0.03834
G1 X106.518 Y83.570 E0.01689
G1 X107.378 Y84.430 E0.03834
G1 X106.930 Y84.430 E0.01412
G1 X106.930 Y84.518 E0.00277
G1 X106.070 Y83.658 E0.03834
G1 X106.070 Y84.194 E0.01689
G1 X106.930 Y85.054 E0.03834
G1 X106.930 Y85.590 E0.01689
G1 X106.070 Y84.730 E0.03834
G1 X106.070 Y85.266 E0.01689
G1 X106.930 Y86.126 E0.03834
G1 X106.930 Y86.662 E0.01689
G1 X106.070 Y85.802 E0.03834
G1 X106.070 Y86.338 E0.01689
G1 X106.930 Y87.198 E0.03834
G1 X106.930 Y87.734 E0.01689
G1 X106.070 Y86.874 E0.03834
G1 X106.070 Y87.410 E0.01689
G1 X106.930 Y88.270 E0.03834
G1 X106.930 Y88.806 E0.01689
G1 X106.070 Y87.946 E0.03834
G1 X106.070 Y88.482 E0.01689
G1 X106.930 Y89.342 E0.03834
G1 X106.930 Y89.878 E0.01689
G1 X106.070 Y89.018 E0.03834
G1 X106.070 Y89.554 E0.01689
G1 X106.930 Y90.414 E0.03834
G1 X106.930 Y90.950 E0.01689
G1 X106.070 Y90.090 E0.03834
G1 X106.070 Y90.626 E0.01689
G1 X106.930 Y91.486 E0.03834
G1 X106.930 Y92.022 E0.01689
G1 X106.070 Y91.162 E0.03834
G1 X106.070 Y91.698 E0.01689
G1 X106.930 Y92.558 E0.03834
G1 X106.930 Y93.094 E0.01689
G1 X106.070 Y92.234 E0.03834
G1 X106.070 Y92.770 E0.01689
G1 X106.930 Y93.630 E0.03834
G1 X106.930 Y94.166 E0.01689
G1 X106.070 Y93.306 E0.03834
G1 X106.070 Y93.842 E0.01689
G1 X106.930 Y94.702 E0.03834
G1 X106.930 Y95.238 E0.01689
G1 X106.070 Y94.378 E0.03834
G1 X106.070 Y94.914 E0.01689
G1 X106.930 Y95.774 E0.03834
G1 X106.930 Y96.310 E0.01689
G1 X106.070 Y95.450 E0.03834
G1 X106.070 Y95.986 E0.01689
G1 X106.930 Y96.846 E0.03834
G1 X106.930 Y97.382 E0.01689
G1 X106.070 Y96.522 E0.03834
G1 X106.070 Y97.058 E0.01689
G1 X106.930 Y97.918 E0.03834
G1 X106.930 Y98.454 E0.01689
G1 X106.070 Y97.594 E0.03834
G1 X106.070 Y98.130 E0.01689
G1 X106.930 Y98.991 E0.03834
G1 X106.930 Y99.527 E0.01689
G1 X106.070 Y98.666 E0.03834
G1 X106.070 Y99.202 E0.01689
G1 X106.930 Y100.063 E0.03834
G1 X106.930 Y100.599 E0.01689
G1 X106.070 Y99.738 E0.03834
G1 X106.070 Y100.274 E0.01689
G1 X106.930 Y101.135 E0.03834
G1 X106.930 Y101.671 E0.01689
G1 X106.070 Y100.810 E0.03834
G1 X106.070 Y101.346 E0.01689
G1 X106.930 Y102.207 E0.03834
G1 X106.930 Y102.743 E0.01689
G1 X106.070 Y101.882 E0.03834
G1 X106.070 Y102.418 E0.01689
G1 X106.930 Y103.279 E0.03834
G1 X106.930 Y103.815 E0.01689
G1 X106.070 Y102.954 E0.03834
G1 X106.070 Y103.490 E0.01689
G1 X106.930 Y104.351 E0.03834
G1 X106.930 Y104.887 E0.01689
G1 X106.070 Y104.026 E0.03834
G1 X106.070 Y104.562 E0.01689
G1 X106.930 Y105.423 E0.03834
G1 X106.930 Y105.959 E0.01689
G1 X105.900 Y104.929 E0.04590
;WIPE_START
G1 F8640.000
G1 X106.930 Y105.959 E-0.33632
G1 X106.930 Y105.423 E-0.12377
G1 X106.070 Y104.562 E-0.28091
G1 X106.070 Y104.480 E-0.01900
;WIPE_END
G1 E-0.04000 F2100.000
G1 Z0.600 F10800.000
G1 X143.285 Y106.400
G1 Z0.200
G1 E0.80000 F2100.000
G1 F1200.000
G1 X143.930 Y107.046 E0.02877
G1 X143.930 Y107.582 E0.01689
G1 X142.918 Y106.570 E0.04509
G1 X142.382 Y106.570 E0.01689
G1 X143.930 Y108.118 E0.06898
G1 X143.930 Y108.654 E0.01689
G1 X143.070 Y107.793 E0.03834
G1 X143.070 Y107.430 E0.01145
G1 X142.707 Y107.430 E0.01145
G1 X141.846 Y106.570 E0.03834
G1 X141.310 Y106.570 E0.01689
G1 X142.171 Y107.430 E0.03834
G1 X141.635 Y107.430 E0.01689
G1 X140.774 Y106.570 E0.03834
G1 X140.238 Y106.570 E0.01689
G1 X141.099 Y107.430 E0.03834
G1 X140.563 Y107.430 E0.01689
G1 X139.702 Y106.570 E0.03834
G1 X139.166 Y106.570 E0.01689
G1 X140.027 Y107.430 E0.03834
G1 X139.490 Y107.430 E0.01689
G1 X138.630 Y106.570 E0.03834
G1 X138.094 Y106.570 E0.01689
G1 X138.954 Y107.430 E0.03834
G1 X138.418 Y107.430 E0.01689
G1 X137.558 Y106.570 E0.03834
G1 X137.022 Y106.570 E0.01689
G1 X137.882 Y107.430 E0.03834
G1 X137.346 Y107.430 E0.01689
G1 X136.486 Y106.570 E0.03834
G1 X135.950 Y106.570 E0.01689
G1 X136.810 Y107.430 E0.03834
G1 X136.274 Y107.430 E0.01689
G1 X135.414 Y106.570 E0.03834
G1 X134.878 Y106.570 E0.01689
G1 X135.738 Y107.430 E0.03834
G1 X135.202 Y107.430 E0.01689
G1 X134.342 Y106.570 E0.03834
G1 X133.806 Y106.570 E0.01689
G1 X134.666 Y107.430 E0.03834
G1 X134.130 Y107.430 E0.01689
G1 X133.270 Y106.570 E0.03834
G1 X132.734 Y106.570 E0.01689
G1 X133.594 Y107.430 E0.03834
G1 X133.058 Y107.430 E0.01689
G1 X132.198 Y106.570 E0.03834
G1 X131.662 Y106.570 E0.01689
G1 X132.522 Y107.430 E0.03834
G1 X131.986 Y107.430 E0.01689
G1 X131.126 Y106.570 E0.03834
G1 X130.590 Y106.570 E0.01689
G1 X131.450 Y107.430 E0.03834
G1 X130.914 Y107.430 E0.01689
G1 X130.054 Y106.570 E0.03834
G1 X129.518 Y106.570 E0.01689
G1 X130.378 Y107.430 E0.03834
G1 X129.842 Y107.430 E0.01689
G1 X128.982 Y106.570 E0.03834
G1 X128.446 Y106.570 E0.01689
G1 X129.306 Y107.430 E0.03834
G1 X128.770 Y107.430 E0.01689
G1 X127.910 Y106.570 E0.03834
G1 X127.374 Y106.570 E0.01689
G1 X128.234 Y107.430 E0.03834
G1 X127.698 Y107.430 E0.01689
G1 X126.838 Y106.570 E0.03834
G1 X126.302 Y106.570 E0.01689
G1 X127.162 Y107.430 E0.03834
M73 Q4 S27
G1 X126.626 Y107.430 E0.01689
G1 X125.766 Y106.570 E0.03834
G1 X125.230 Y106.570 E0.01689
M73 P4 R27
G1 X126.090 Y107.430 E0.03834
G1 X125.554 Y107.430 E0.01689
G1 X124.694 Y106.570 E0.03834
G1 X124.158 Y106.570 E0.01689
G1 X125.018 Y107.430 E0.03834
G1 X124.482 Y107.430 E0.01689
G1 X123.622 Y106.570 E0.03834
G1 X123.086 Y106.570 E0.01689
G1 X123.946 Y107.430 E0.03834
G1 X123.410 Y107.430 E0.01689
G1 X122.550 Y106.570 E0.03834
G1 X122.014 Y106.570 E0.01689
G1 X122.874 Y107.430 E0.03834
G1 X122.338 Y107.430 E0.01689
G1 X121.478 Y106.570 E0.03834
G1 X120.942 Y106.570 E0.01689
G1 X121.802 Y107.430 E0.03834
G1 X121.266 Y107.430 E0.01689
G1 X120.406 Y106.570 E0.03834
G1 X119.870 Y106.570 E0.01689
G1 X120.730 Y107.430 E0.03834
G1 X120.194 Y107.430 E0.01689
G1 X119.334 Y106.570 E0.03834
G1 X118.798 Y106.570 E0.01689
G1 X119.658 Y107.430 E0.03834
G1 X119.122 Y107.430 E0.01689
G1 X118.262 Y106.570 E0.03834
G1 X117.726 Y106.570 E0.01689
G1 X118.586 Y107.430 E0.03834
G1 X118.050 Y107.430 E0.01689
G1 X117.190 Y106.570 E0.03834
G1 X116.654 Y106.570 E0.01689
G1 X117.514 Y107.430 E0.03834
G1 X116.978 Y107.430 E0.01689
G1 X116.118 Y106.570 E0.03834
G1 X115.582 Y106.570 E0.01689
G1 X116.442 Y107.430 E0.03834
G1 X115.906 Y107.430 E0.01689
G1 X115.046 Y106.570 E0.03834
G1 X114.509 Y106.570 E0.01689
G1 X115.370 Y107.430 E0.03834
G1 X114.834 Y107.430 E0.01689
G1 X113.973 Y106.570 E0.03834
G1 X113.437 Y106.570 E0.01689
G1 X114.298 Y107.430 E0.03834
G1 X113.762 Y107.430 E0.01689
G1 X112.901 Y106.570 E0.03834
G1 X112.365 Y106.570 E0.01689
G1 X113.226 Y107.430 E0.03834
G1 X112.690 Y107.430 E0.01689
G1 X111.829 Y106.570 E0.03834
G1 X111.293 Y106.570 E0.01689
G1 X112.154 Y107.430 E0.03834
G1 X111.618 Y107.430 E0.01689
G1 X110.757 Y106.570 E0.03834
G1 X110.221 Y106.570 E0.01689
G1 X111.082 Y107.430 E0.03834
G1 X110.546 Y107.430 E0.01689
G1 X109.685 Y106.570 E0.03834
G1 X109.149 Y106.570 E0.01689
G1 X110.010 Y107.430 E0.03834
G1 X109.474 Y107.430 E0.01689
